!!!COM: Haydn, Franz Joseph
!!!OPR: London Symphonies
!!!OTL: Symphonie Nr. 104
!!!XEN: Symphony No. 104 in D major
!!!OTP: "London"
!!!OMV: Movement 2.
!!!YEC: Copyright 1996, Center for Computer Assisted Research in the Humanities
!!!YEM: Rights to all derivative electronic formats reserved.
!!!YEM: Refer to licensing agreement for further details.
!!
!! Old notation for horns m.145-8.(Transposed above written pitch rather than below.)
!! A part for clarinets is customarily given, although none appears in Mvts.II-IV
!!     of the autograph score.
!! A part for clarinets is customarily given, although none appears in Mvts.II-IV 
!!     of the autograph score.  
!!
!! Andante
**kern	**kern	**kern	**kern	**kern	**kern	**kern	**kern	**kern	**kern	**kern	**kern	**kern	**kern	**kern	**kern	**kern	**kern
!Contrabasso	!Violoncello	!Viola	!Violino II	!Violino I	!Timpani in D, A	!Tromba 2 in D	!Tromba 1 in D	!Corno 2 in G	!Corno 1 in G	!Fagotto 2	!Fagotto 1	!Clarinetto 2 in A	!Clarinetto 1 in A	!Oboe 2	!Oboe 1	!Flauto 2	!Flauto 1
*Icbass	*Icello	*Iviola	*Ivioln	*Ivioln	*Itimpa	*Itromp	*Itromp	*Icor	*Icor	*Ifagot	*Ifagot	*Iclars	*Iclars	*Ioboe	*Ioboe	*Iflt	*Iflt
*ICstr	*ICstr	*ICstr	*ICstr	*ICstr	*ICidio	*ICbras	*ICbras	*ICbras	*ICbras	*ICww	*ICww	*ICww	*ICww	*ICww	*ICww	*ICww	*ICww
*clefF4	*clefF4	*clefC3	*clefG2	*clefG2	*clefF4	*clefG2	*clefG2	*clefG2	*clefG2	*clefF4	*clefF4	*clefG2	*clefG2	*clefG2	*clefG2	*clefG2	*clefG2
*k[f#]	*k[f#]	*k[f#]	*k[f#]	*k[f#]	*k[f#]	*k[b-]	*k[b-]	*k[]	*k[]	*k[f#]	*k[f#]	*k[b-]	*k[b-]	*k[f#]	*k[f#]	*k[f#]	*k[f#]
*M2/4	*M2/4	*M2/4	*M2/4	*M2/4	*M2/4	*M2/4	*M2/4	*M2/4	*M2/4	*M2/4	*M2/4	*M2/4	*M2/4	*M2/4	*M2/4	*M2/4	*M2/4
*>[A,A,B,B,C]	*>[A,A,B,B,C]	*>[A,A,B,B,C]	*>[A,A,B,B,C]	*>[A,A,B,B,C]	*>[A,A,B,B,C]	*>[A,A,B,B,C]	*>[A,A,B,B,C]	*>[A,A,B,B,C]	*>[A,A,B,B,C]	*>[A,A,B,B,C]	*>[A,A,B,B,C]	*>[A,A,B,B,C]	*>[A,A,B,B,C]	*>[A,A,B,B,C]	*>[A,A,B,B,C]	*>[A,A,B,B,C]	*>[A,A,B,B,C]
*>A	*>A	*>A	*>A	*>A	*>A	*>A	*>A	*>A	*>A	*>A	*>A	*>A	*>A	*>A	*>A	*>A	*>A
=1-	=1-	=1-	=1-	=1-	=1-	=1-	=1-	=1-	=1-	=1-	=1-	=1-	=1-	=1-	=1-	=1-	=1-
8GG\	8G\	8G/	8d/	(8..b\L	2r	2r	2r	2r	2r	2r	2r	2r	2r	2r	2r	2r	2r
8r	8r	8r	8r	.	.	.	.	.	.	.	.	.	.	.	.	.	.
.	.	.	.	32cc\Jkk)	.	.	.	.	.	.	.	.	.	.	.	.	.
8DD\	8D\	8f#\	8c/	8a'\L	.	.	.	.	.	.	.	.	.	.	.	.	.
8r	8r	8r	8r	8dd'\J	.	.	.	.	.	.	.	.	.	.	.	.	.
=2	=2	=2	=2	=2	=2	=2	=2	=2	=2	=2	=2	=2	=2	=2	=2	=2	=2
8EE\	8E\	8g\	8B/	8g/	2r	2r	2r	2r	2r	2r	2r	2r	2r	2r	2r	2r	2r
8r	8r	8r	8r	8r	.	.	.	.	.	.	.	.	.	.	.	.	.
8r	8r	8r	8r	8r	.	.	.	.	.	.	.	.	.	.	.	.	.
(8CCz/	(8Cz/	(8ez\	(8gz/	(8eez\	.	.	.	.	.	.	.	.	.	.	.	.	.
=3	=3	=3	=3	=3	=3	=3	=3	=3	=3	=3	=3	=3	=3	=3	=3	=3	=3
8C\)	8c\)	8A/)	8d/)	8f#/)	2r	2r	2r	2r	2r	2r	2r	2r	2r	2r	2r	2r	2r
8BB'\L	8B'\L	8d'\L	8d'/L	8g'/L	.	.	.	.	.	.	.	.	.	.	.	.	.
8AA'\	8A'\	8c'\J	8f#'/	8a'/	.	.	.	.	.	.	.	.	.	.	.	.	.
8GG'\J	8G'\J	16B/LL	8g'/J	8b'/J	.	.	.	.	.	.	.	.	.	.	.	.	.
.	.	16G/JJ	.	.	.	.	.	.	.	.	.	.	.	.	.	.	.
=4	=4	=4	=4	=4	=4	=4	=4	=4	=4	=4	=4	=4	=4	=4	=4	=4	=4
4DD\	4D\	4D/	8a'/L	8cc'/L	2r	2r	2r	2r	2r	2r	2r	2r	2r	2r	2r	2r	2r
.	.	.	(16g/LL)	(16b/LL)	.	.	.	.	.	.	.	.	.	.	.	.	.
.	.	.	32f#/LLL	32a/LLL	.	.	.	.	.	.	.	.	.	.	.	.	.
.	.	.	32g/JJJ)	32b/JJJ)	.	.	.	.	.	.	.	.	.	.	.	.	.
4r	4r	4r	8f#/	8a/	.	.	.	.	.	.	.	.	.	.	.	.	.
.	.	.	8r	8r	.	.	.	.	.	.	.	.	.	.	.	.	.
=5	=5	=5	=5	=5	=5	=5	=5	=5	=5	=5	=5	=5	=5	=5	=5	=5	=5
8GG\	8G\	8D/	8d/	(8..b\L	2r	2r	2r	2r	2r	2r	2r	2r	2r	2r	2r	2r	2r
8r	8r	8r	8r	.	.	.	.	.	.	.	.	.	.	.	.	.	.
.	.	.	.	32cc\Jkk)	.	.	.	.	.	.	.	.	.	.	.	.	.
8DD\	8D\	8F#/	8c/	8a'\L	.	.	.	.	.	.	.	.	.	.	.	.	.
8r	8r	8r	8r	8dd'\J	.	.	.	.	.	.	.	.	.	.	.	.	.
=6	=6	=6	=6	=6	=6	=6	=6	=6	=6	=6	=6	=6	=6	=6	=6	=6	=6
(2EE\	(2E\	(2G/	(2c#/	8g'/L	2r	2r	2r	2r	2r	2r	2r	2r	2r	2r	2r	2r	2r
.	.	.	.	8b'/	.	.	.	.	.	.	.	.	.	.	.	.	.
.	.	.	.	8e'/J	.	.	.	.	.	.	.	.	.	.	.	.	.
.	.	.	.	(8b-z/	.	.	.	.	.	.	.	.	.	.	.	.	.
=7	=7	=7	=7	=7	=7	=7	=7	=7	=7	=7	=7	=7	=7	=7	=7	=7	=7
8FF#\)	8F#\)	8F#/)	8d/)	8d/)	2r	2r	2r	2r	2r	2r	2r	2r	2r	2r	2r	2r	2r
8GG'\L	8G'\L	8G'/L	8d'/L	8g'/L	.	.	.	.	.	.	.	.	.	.	.	.	.
8AA'\	8A'\	8A'/	8d'/	8f#'/	.	.	.	.	.	.	.	.	.	.	.	.	.
8AAA'\J	8AA'\J	8G'/J	8c#'/J	8e'/J	.	.	.	.	.	.	.	.	.	.	.	.	.
=8	=8	=8	=8	=8	=8	=8	=8	=8	=8	=8	=8	=8	=8	=8	=8	=8	=8
8r	8r	4F#/	4d/	4d/	2r	2r	2r	2r	2r	2r	2r	2r	2r	2r	2r	2r	2r
8AAA'/L	8AA'/L	.	.	.	.	.	.	.	.	.	.	.	.	.	.	.	.
8DDD'/J	8DD'/J	4r	4r	4r	.	.	.	.	.	.	.	.	.	.	.	.	.
8r	8r	.	.	.	.	.	.	.	.	.	.	.	.	.	.	.	.
=9:||:	=9:||:	=9:||:	=9:||:	=9:||:	=9:||:	=9:||:	=9:||:	=9:||:	=9:||:	=9:||:	=9:||:	=9:||:	=9:||:	=9:||:	=9:||:	=9:||:	=9:||:
*>B	*>B	*>B	*>B	*>B	*>B	*>B	*>B	*>B	*>B	*>B	*>B	*>B	*>B	*>B	*>B	*>B	*>B
2r	(8..c\L	2r	(4f#/	(8a/L	2r	2r	2r	2r	2r	2r	2r	2r	2r	2r	2r	2r	2r
.	.	.	.	16d/Jk)	.	.	.	.	.	.	.	.	.	.	.	.	.
.	.	.	.	16r	.	.	.	.	.	.	.	.	.	.	.	.	.
.	32d\Jkk)	.	.	.	.	.	.	.	.	.	.	.	.	.	.	.	.
.	8B'\L	.	4g#/)	(8b/L	.	.	.	.	.	.	.	.	.	.	.	.	.
.	8e'\J	.	.	16d/Jk)	.	.	.	.	.	.	.	.	.	.	.	.	.
.	.	.	.	16r	.	.	.	.	.	.	.	.	.	.	.	.	.
=10	=10	=10	=10	=10	=10	=10	=10	=10	=10	=10	=10	=10	=10	=10	=10	=10	=10
2r	8A\	2r	8a'\L	8cc'\L	2r	2r	2r	2r	2r	2r	2r	2r	2r	2r	2r	2r	2r
.	8r	.	8b'\	8dd'\	.	.	.	.	.	.	.	.	.	.	.	.	.
.	4r	.	8cc'\J	8ee'\J	.	.	.	.	.	.	.	.	.	.	.	.	.
.	.	.	8r	8r	.	.	.	.	.	.	.	.	.	.	.	.	.
=11	=11	=11	=11	=11	=11	=11	=11	=11	=11	=11	=11	=11	=11	=11	=11	=11	=11
2r	2r	(8..fz\L	(4b\	(8dd\L	2r	2r	2r	2r	2r	2r	2r	2r	2r	2r	2r	2r	2r
.	.	.	.	16g\Jk)	.	.	.	.	.	.	.	.	.	.	.	.	.
.	.	.	.	16r	.	.	.	.	.	.	.	.	.	.	.	.	.
.	.	32g\Jkk)	.	.	.	.	.	.	.	.	.	.	.	.	.	.	.
.	.	8e'\L	4cc#\)	(8ee\L	.	.	.	.	.	.	.	.	.	.	.	.	.
.	.	8a'\J	.	16g\Jk)	.	.	.	.	.	.	.	.	.	.	.	.	.
.	.	.	.	16r	.	.	.	.	.	.	.	.	.	.	.	.	.
=12	=12	=12	=12	=12	=12	=12	=12	=12	=12	=12	=12	=12	=12	=12	=12	=12	=12
2r	2r	8d\	8dd'\L	8ff'\L	2r	2r	2r	2r	2r	2r	2r	2r	2r	2r	2r	2r	2r
.	.	8r	8ee'\	8gg'\	.	.	.	.	.	.	.	.	.	.	.	.	.
.	.	8r	8ff'\	8aa'\	.	.	.	.	.	.	.	.	.	.	.	.	.
.	.	8g\	8b'\J	8dd'\J	.	.	.	.	.	.	.	.	.	.	.	.	.
=13	=13	=13	=13	=13	=13	=13	=13	=13	=13	=13	=13	=13	=13	=13	=13	=13	=13
4r	4r	4c\	8cc'\L	8ee'\L	2r	2r	2r	2r	2r	2r	2r	2r	2r	2r	2r	2r	2r
.	.	.	(16dd\LL)	(16ff\LL)	.	.	.	.	.	.	.	.	.	.	.	.	.
.	.	.	32cc\LLL	32ee\LLL	.	.	.	.	.	.	.	.	.	.	.	.	.
.	.	.	32dd\JJJ)	32ff\JJJ)	.	.	.	.	.	.	.	.	.	.	.	.	.
8r	8r	8r	8ee'/L	8gg'\L	.	.	.	.	.	.	.	.	.	.	.	.	.
8GG#'\	8G#'\	8G#'/	8B'/J	(16ff\LL	.	.	.	.	.	.	.	.	.	.	.	.	.
.	.	.	.	16ee\JJ)	.	.	.	.	.	.	.	.	.	.	.	.	.
=14	=14	=14	=14	=14	=14	=14	=14	=14	=14	=14	=14	=14	=14	=14	=14	=14	=14
8AA'\L	8A'\L	8A'/L	8c'/L	(16ee\LL	2r	2r	2r	2r	2r	2r	2r	2r	2r	2r	2r	2r	2r
.	.	.	.	16dd\)	.	.	.	.	.	.	.	.	.	.	.	.	.
8BB'\	8B'\	8B'/	8d'/	(16dd\	.	.	.	.	.	.	.	.	.	.	.	.	.
.	.	.	.	16cc\JJ)	.	.	.	.	.	.	.	.	.	.	.	.	.
8C'\	8c'\	8c'/	8e'/	8cc'\L	.	.	.	.	.	.	.	.	.	.	.	.	.
8GG#'\J	8G#'\J	8G#'/J	8B'/J	(16ff\LL	.	.	.	.	.	.	.	.	.	.	.	.	.
.	.	.	.	16ee\JJ)	.	.	.	.	.	.	.	.	.	.	.	.	.
=15	=15	=15	=15	=15	=15	=15	=15	=15	=15	=15	=15	=15	=15	=15	=15	=15	=15
8AA'\L	8A'\L	8A'/L	8c'/L	(16ee\LL	2r	2r	2r	2r	2r	2r	2r	2r	2r	2r	2r	2r	2r
.	.	.	.	16dd\)	.	.	.	.	.	.	.	.	.	.	.	.	.
8BB'\	8B'\	8B'/	8e'/	(16dd\	.	.	.	.	.	.	.	.	.	.	.	.	.
.	.	.	.	16cc\JJ)	.	.	.	.	.	.	.	.	.	.	.	.	.
8C'\	8c'\	8c'/	8e'/	(16cc\LL	.	.	.	.	.	.	.	.	.	.	.	.	.
.	.	.	.	16b\)	.	.	.	.	.	.	.	.	.	.	.	.	.
8C#'\J	8c#'\J	8c#'/J	8g'/J	(16b\	.	.	.	.	.	.	.	.	.	.	.	.	.
.	.	.	.	16a\JJ)	.	.	.	.	.	.	.	.	.	.	.	.	.
=16	=16	=16	=16	=16	=16	=16	=16	=16	=16	=16	=16	=16	=16	=16	=16	=16	=16
4D\	4d\	4d\	4f#/	(8..a/L	2r	2r	2r	2r	2r	2r	2r	2r	2r	2r	2r	2r	2r
.	.	.	.	32b/Jkk)	.	.	.	.	.	.	.	.	.	.	.	.	.
4r	4r	4r	4r	8a'/L	.	.	.	.	.	.	.	.	.	.	.	.	.
.	.	.	.	8a#'/J	.	.	.	.	.	.	.	.	.	.	.	.	.
=17	=17	=17	=17	=17	=17	=17	=17	=17	=17	=17	=17	=17	=17	=17	=17	=17	=17
8GG\	8G\	8g\	8d/	(8..b\L	2r	2r	2r	2r	2r	2r	(8..B\L	2r	2r	2r	2r	2r	2r
8r	8r	8r	8r	.	.	.	.	.	.	.	.	.	.	.	.	.	.
.	.	.	.	32cc\Jkk)	.	.	.	.	.	.	32c\Jkk)	.	.	.	.	.	.
8DD\	8D\	8f#\	8c/	8a'\L	.	.	.	.	.	.	8A'\L	.	.	.	.	.	.
8r	8r	8r	8r	8dd'\J	.	.	.	.	.	.	8d'\J	.	.	.	.	.	.
=18	=18	=18	=18	=18	=18	=18	=18	=18	=18	=18	=18	=18	=18	=18	=18	=18	=18
8EE\	8E\	8g\	8B/	8g/	2r	2r	2r	2r	2r	2r	8G\	2r	2r	2r	2r	2r	2r
8r	8r	8r	8r	8r	.	.	.	.	.	.	8r	.	.	.	.	.	.
8r	8r	8r	8r	8r	.	.	.	.	.	.	8r	.	.	.	.	.	.
(8CCz/	(8Cz/	(8ez\	(8gz/	(8eez\	.	.	.	.	.	.	(8ez\	.	.	.	.	.	.
=19	=19	=19	=19	=19	=19	=19	=19	=19	=19	=19	=19	=19	=19	=19	=19	=19	=19
8C\)	8c\)	8A/)	8d/)	8f#/)	2r	2r	2r	2r	2r	2r	8F#\)	2r	2r	2r	2r	2r	2r
8BB'\L	8B'\L	8d'\L	8d'/L	8g'/L	.	.	.	.	.	.	8G'\L	.	.	.	.	.	.
8AA'\	8A'\	8c'\J	8f#'/	8a'/	.	.	.	.	.	.	8A'\	.	.	.	.	.	.
8GG'\J	8G'\J	(16B/LL	8g'/J	8b'/J	.	.	.	.	.	.	8B'\J	.	.	.	.	.	.
.	.	16G/JJ)	.	.	.	.	.	.	.	.	.	.	.	.	.	.	.
=20	=20	=20	=20	=20	=20	=20	=20	=20	=20	=20	=20	=20	=20	=20	=20	=20	=20
4DD\	4D\	4D/	8a'/L	8cc'/L	2r	2r	2r	2r	2r	2r	8c'\L	2r	2r	2r	2r	2r	2r
.	.	.	(16g/LL)	(16b/LL)	.	.	.	.	.	.	(16B\LL)	.	.	.	.	.	.
.	.	.	32f#/LLL	32a/LLL	.	.	.	.	.	.	32A\LLL	.	.	.	.	.	.
.	.	.	32g/JJJ)	32b/JJJ)	.	.	.	.	.	.	32B\JJJ)	.	.	.	.	.	.
4r	4r	4r	8f#'/L	8a'/L	.	.	.	.	.	.	8A'\L	.	.	.	.	.	.
.	.	.	8g#'/J	8b'/J	.	.	.	.	.	.	8B'\J	.	.	.	.	.	.
=21	=21	=21	=21	=21	=21	=21	=21	=21	=21	=21	=21	=21	=21	=21	=21	=21	=21
(4.DD\	(4.D\	2F#/	(8..a/L	(8..cc\L	2r	2r	2r	2r	2r	2r	(8..c\L	2r	2r	2r	2r	2r	2r
.	.	.	32b/Jkk)	32dd\Jkk)	.	.	.	.	.	.	32d\Jkk)	.	.	.	.	.	.
.	.	.	8a'/L	8cc'\L	.	.	.	.	.	.	8c'\L	.	.	.	.	.	.
8CC/)	8C/)	.	8a'/J	8cc#'\J	.	.	.	.	.	.	8c#'\J	.	.	.	.	.	.
=22	=22	=22	=22	=22	=22	=22	=22	=22	=22	=22	=22	=22	=22	=22	=22	=22	=22
(2BBB/	(2BB/	8D/	2g/	(8..dd\L	2r	2r	2r	2r	2r	2r	(8..d\L	2r	2r	2r	2r	2r	2r
.	.	4d\	.	.	.	.	.	.	.	.	.	.	.	.	.	.	.
.	.	.	.	32ee\Jkk)	.	.	.	.	.	.	32e\Jkk)	.	.	.	.	.	.
.	.	.	.	8dd'\L	.	.	.	.	.	.	8d'\L	.	.	.	.	.	.
.	.	8d#\	.	8dd#'\J	.	.	.	.	.	.	8d#'\J	.	.	.	.	.	.
=23	=23	=23	=23	=23	=23	=23	=23	=23	=23	=23	=23	=23	=23	=23	=23	=23	=23
2CC/)	2C/)	2d#\	2g/ 2G/	2dd#\	2r	2r	2r	2r	2r	2r	[2d#\	2r	2r	2r	2r	2r	2r
=24	=24	=24	=24	=24	=24	=24	=24	=24	=24	=24	=24	=24	=24	=24	=24	=24	=24
2CCz/	2Cz/	(4.f#z\	(4.d#z/ (4.A/	(4.ff#z\	2r	2r	2r	2r	2r	4.A\	4.d#z\]	2r	2r	2r	2r	2r	2r
.	.	8e\)	8e/) 8G/)	8ee\)	.	.	.	.	.	8G\	8e\	.	.	.	.	.	.
=25	=25	=25	=25	=25	=25	=25	=25	=25	=25	=25	=25	=25	=25	=25	=25	=25	=25
2CC;/	2C;/	2e;\	2e;/ 2G/	2ee;\	2r	2r	2r	2r	2r	2G;\	2e;\	2r	2r	2r	2r	2r	2r
=26	=26	=26	=26	=26	=26	=26	=26	=26	=26	=26	=26	=26	=26	=26	=26	=26	=26
(4.AA\	(4.A\	(4.a\	(8..cc\L	(8..ee\L	2r	2r	2r	2r	2r	2r	2r	2r	2r	2r	2r	2r	2r
.	.	.	32dd\Jkk)	32ff\Jkk)	.	.	.	.	.	.	.	.	.	.	.	.	.
.	.	.	8cc'\L	8ee\L	.	.	.	.	.	.	.	.	.	.	.	.	.
8GG\)	8G\)	8g\)	8cc'\J	8ee'\J	.	.	.	.	.	.	.	.	.	.	.	.	.
=27	=27	=27	=27	=27	=27	=27	=27	=27	=27	=27	=27	=27	=27	=27	=27	=27	=27
4.FF#\	4.F#\	4.f#\	4.a/ 4.d/	4.ccc\)	2r	2r	2r	2r	2r	2r	2r	2r	2r	2r	2r	2r	2r
8GG\	8G\	8g\	8b'\	8bb'\	.	.	.	.	.	.	.	.	.	.	.	.	.
=28	=28	=28	=28	=28	=28	=28	=28	=28	=28	=28	=28	=28	=28	=28	=28	=28	=28
8CC/	8C/	8c\	8cc'\L	8aa'\L	2r	2r	2r	2r	2r	2r	2r	2r	2r	2r	2r	2r	2r
8r	8r	8r	8b'\	8gg'\	.	.	.	.	.	.	.	.	.	.	.	.	.
8DD\	8D\	8d\	8a'\	8ff#'\	.	.	.	.	.	.	.	.	.	.	.	.	.
8r	8r	8r	8cc'\J	8aa'\J	.	.	.	.	.	.	.	.	.	.	.	.	.
=29	=29	=29	=29	=29	=29	=29	=29	=29	=29	=29	=29	=29	=29	=29	=29	=29	=29
4.EE\	4.E\	4.c#\	4.b\	4.gg\	2r	2r	2r	2r	2r	2r	2r	2r	2r	2r	2r	2r	2r
8r	8r	8r	8a/	8ff#\	.	.	.	.	.	.	.	.	.	.	.	.	.
=30	=30	=30	=30	=30	=30	=30	=30	=30	=30	=30	=30	=30	=30	=30	=30	=30	=30
4r	4r	4r	(8g/L	(8ee\L	2r	2r	2r	2r	2r	2r	2r	2r	2r	2r	2r	2r	2r
.	.	.	8f#/	8dd\	.	.	.	.	.	.	.	.	.	.	.	.	.
8r	8r	8r	8e/	8cc#\	.	.	.	.	.	.	.	.	.	.	.	.	.
8C#\	8c#\	8c#\	8g/J)	8ee\J)	.	.	.	.	.	.	.	.	.	.	.	.	.
=31	=31	=31	=31	=31	=31	=31	=31	=31	=31	=31	=31	=31	=31	=31	=31	=31	=31
(8D\L	(8d\L	(8d/L	(8f#/L	(8dd\L	2r	2r	2r	2r	2r	2r	2r	2r	2r	2r	2r	2r	2r
8FF#\	8F#\	8F#/	8e-/	8cc\	.	.	.	.	.	.	.	.	.	.	.	.	.
8GG\	8G\	8G/	8d/	8b\	.	.	.	.	.	.	.	.	.	.	.	.	.
8EE-\J)	8E-\J)	8E-/J)	8c/J)	8a\J)	.	.	.	.	.	.	.	.	.	.	.	.	.
=32	=32	=32	=32	=32	=32	=32	=32	=32	=32	=32	=32	=32	=32	=32	=32	=32	=32
(8DD/L	(8D/L	(8D/L	(8B/L	8g#/L	2r	2r	2r	2r	2r	2r	2r	2r	2r	2r	2r	2r	2r
8CC#/	8C#/	8C#/	8B-/	8g/J	.	.	.	.	.	.	.	.	.	.	.	.	.
8DD/)	8D/)	8D/)	8A/	8g/L	.	.	.	.	.	.	.	.	.	.	.	.	.
8DD'/J	8D'/J	8D'/J	8c/J)	16a/LL	.	.	.	.	.	.	.	.	.	.	.	.	.
.	.	.	.	16f#/JJ)	.	.	.	.	.	.	.	.	.	.	.	.	.
=33	=33	=33	=33	=33	=33	=33	=33	=33	=33	=33	=33	=33	=33	=33	=33	=33	=33
[2GGG/	[2GG/	(8D/L	(8B/L	4.g/	2r	2r	2r	2r	2r	2r	(8G\L	2r	2r	2r	2r	2r	2r
.	.	8B/	8d/	.	.	.	.	.	.	.	8B\	.	.	.	.	.	.
.	.	8d/	8B/	.	.	.	.	.	.	.	8d\	.	.	.	.	.	.
.	.	8B/J)	8d/J)	(16b\LL	.	.	.	.	.	.	8B\J)	.	.	.	.	.	.
.	.	.	.	16dd\JJ)	.	.	.	.	.	.	.	.	.	.	.	.	.
=34	=34	=34	=34	=34	=34	=34	=34	=34	=34	=34	=34	=34	=34	=34	=34	=34	=34
2GGG_/	2GG_/	2c\	(4e/	(16dd\LL	2r	2r	2r	2r	2r	2r	2c\	2r	2r	2r	2r	2r	2r
.	.	.	.	16cc\)	.	.	.	.	.	.	.	.	.	.	.	.	.
.	.	.	.	(16cc\	.	.	.	.	.	.	.	.	.	.	.	.	.
.	.	.	.	16b\JJ)	.	.	.	.	.	.	.	.	.	.	.	.	.
.	.	.	4f#/)	(16b/LL	.	.	.	.	.	.	.	.	.	.	.	.	.
.	.	.	.	16a/)	.	.	.	.	.	.	.	.	.	.	.	.	.
.	.	.	.	(16a/	.	.	.	.	.	.	.	.	.	.	.	.	.
.	.	.	.	16g/JJ)	.	.	.	.	.	.	.	.	.	.	.	.	.
=35	=35	=35	=35	=35	=35	=35	=35	=35	=35	=35	=35	=35	=35	=35	=35	=35	=35
2GGG_/	2GG_/	(4B/	(8g/L	4.g/	2r	2r	2r	2r	2r	2r	(4B\	2r	2r	2r	2r	2r	2r
.	.	.	8d/	.	.	.	.	.	.	.	.	.	.	.	.	.	.
.	.	8d\L	8B/	.	.	.	.	.	.	.	8d\L	.	.	.	.	.	.
.	.	8B\J)	8d/J)	(16b\LL	.	.	.	.	.	.	8B\J)	.	.	.	.	.	.
.	.	.	.	16dd\JJ)	.	.	.	.	.	.	.	.	.	.	.	.	.
=36	=36	=36	=36	=36	=36	=36	=36	=36	=36	=36	=36	=36	=36	=36	=36	=36	=36
2GGG/]	2GG/]	2c\	(4e/	(16dd\LL	2r	2r	2r	2r	2r	2r	2c\	2r	2r	2r	2r	2r	2r
.	.	.	.	16cc\)	.	.	.	.	.	.	.	.	.	.	.	.	.
.	.	.	.	(16cc\	.	.	.	.	.	.	.	.	.	.	.	.	.
.	.	.	.	16b\JJ)	.	.	.	.	.	.	.	.	.	.	.	.	.
.	.	.	4f#/)	(16b/LL	.	.	.	.	.	.	.	.	.	.	.	.	.
.	.	.	.	16a/)	.	.	.	.	.	.	.	.	.	.	.	.	.
.	.	.	.	(16a/	.	.	.	.	.	.	.	.	.	.	.	.	.
.	.	.	.	16g/JJ)	.	.	.	.	.	.	.	.	.	.	.	.	.
=37	=37	=37	=37	=37	=37	=37	=37	=37	=37	=37	=37	=37	=37	=37	=37	=37	=37
(16GG\LL	(16G\LL	4B/	4g/	4g/	2r	2r	2r	2r	2r	2r	4B\	2r	2r	2r	2r	2r	2r
16DD\)	16D\)	.	.	.	.	.	.	.	.	.	.	.	.	.	.	.	.
(16DD\	(16D\	.	.	.	.	.	.	.	.	.	.	.	.	.	.	.	.
16BBB\JJ)	16BB\JJ)	.	.	.	.	.	.	.	.	.	.	.	.	.	.	.	.
8GGG/	8GG/	4r	4r	4r	.	.	.	.	.	.	4r	.	.	.	.	.	.
8r	8r	.	.	.	.	.	.	.	.	.	.	.	.	.	.	.	.
=38:|!	=38:|!	=38:|!	=38:|!	=38:|!	=38:|!	=38:|!	=38:|!	=38:|!	=38:|!	=38:|!	=38:|!	=38:|!	=38:|!	=38:|!	=38:|!	=38:|!	=38:|!
*k[b-e-]	*k[b-e-]	*k[b-e-]	*k[b-e-]	*k[b-e-]	*>C	*>C	*>C	*>C	*>C	*k[b-e-]	*k[b-e-]	*>C	*>C	*k[b-e-]	*k[b-e-]	*k[b-e-]	*k[b-e-]
*>C	*>C	*>C	*>C	*>C	*	*	*	*	*	*>C	*>C	*	*	*>C	*>C	*>C	*>C
2r	2r	2r	2r	2r	2r	2r	2r	2r	2r	2r	4G\	2r	2r	[2dd\	2r	2r	(8..bb-\L
.	.	.	.	.	.	.	.	.	.	.	.	.	.	.	.	.	32ccc\Jkk)
.	.	.	.	.	.	.	.	.	.	.	4d\	.	.	.	.	.	8aa'\L
.	.	.	.	.	.	.	.	.	.	.	.	.	.	.	.	.	8ddd'\J
=39	=39	=39	=39	=39	=39	=39	=39	=39	=39	=39	=39	=39	=39	=39	=39	=39	=39
2r	2r	2r	2r	2r	2r	2r	2r	2r	2r	2r	4.e-\	2r	2r	8dd\L]	4r	2r	4.gg\
.	.	.	.	.	.	.	.	.	.	.	.	.	.	8g\J	.	.	.
.	.	.	.	.	.	.	.	.	.	.	.	.	.	[4cc\	8r	.	.
.	.	.	.	.	.	.	.	.	.	.	8c\	.	.	.	(8ggz\	.	(8eee-z\
=40	=40	=40	=40	=40	=40	=40	=40	=40	=40	=40	=40	=40	=40	=40	=40	=40	=40
2r	2r	2r	2r	2r	2r	2r	2r	2r	2r	2r	[2d\	2r	2r	8cc/L]	8ee-\L)	2r	8ff#\)
.	.	.	.	.	.	.	.	.	.	.	.	.	.	(8b-'/	(8dd'\	.	(8gg'\L
.	.	.	.	.	.	.	.	.	.	.	.	.	.	8f#'/	8cc'\	.	8aa'\
.	.	.	.	.	.	.	.	.	.	.	.	.	.	8g'/J)	8cc#'\J)	.	8bb-'\J)
=41	=41	=41	=41	=41	=41	=41	=41	=41	=41	=41	=41	=41	=41	=41	=41	=41	=41
2r	2r	2r	2r	2r	2r	2r	2r	2r	2r	2r	4.d\]	2r	2r	(4g/	(4cc#\	2r	(4bb-\
.	.	.	.	.	.	.	.	.	.	.	.	.	.	8f#/)	8dd\)	.	8aa\)
.	.	.	.	.	.	.	.	.	.	.	8r	.	.	8r	8r	.	8r
*	*	*	*	*	*	*	*	*	*	*clefC4	*clefC4	*	*	*	*	*	*
=42	=42	=42	=42	=42	=42	=42	=42	=42	=42	=42	=42	=42	=42	=42	=42	=42	=42
16DD'\LL	16D'\LL	16D'\LL	2f/ 2A/	8.aa\L	4D\	2d/	2dd\	2d/	2d/	2d\	2d\	2dd\	2dd\	2ff\	2aa\	2ff\	2ff\
16AA'\	16A'\	16f'\	.	.	.	.	.	.	.	.	.	.	.	.	.	.	.
16FF'\	16F'\	16d'\	.	.	.	.	.	.	.	.	.	.	.	.	.	.	.
16D'\JJ	16d'\JJ	16f'\JJ	.	(32ff\LLL	.	.	.	.	.	.	.	.	.	.	.	.	.
.	.	.	.	32gg\JJJ)	.	.	.	.	.	.	.	.	.	.	.	.	.
16DD'\LL	16D'\LL	16D'\LL	.	8aa\L	8D\L	.	.	.	.	.	.	.	.	.	.	.	.
16AA'\	16A'\	16f'\	.	.	.	.	.	.	.	.	.	.	.	.	.	.	.
16FF'\	16F'\	16d'\	.	8d/J	8D\J	.	.	.	.	.	.	.	.	.	.	.	.
16D'\JJ	16d'\JJ	16f'\JJ	.	.	.	.	.	.	.	.	.	.	.	.	.	.	.
=43	=43	=43	=43	=43	=43	=43	=43	=43	=43	=43	=43	=43	=43	=43	=43	=43	=43
2AA\	2A\	8.e\L	16e'\LL	(4d/	4AA/	2a/	2ee\	2a\	2a\	(4d\	2e\	(4dd\	2ee\	8.bb-\L	8.bb-\L	8.bb-\L	8.bb-\L
.	.	.	16b-'\	.	.	.	.	.	.	.	.	.	.	.	.	.	.
.	.	.	16g'\	.	.	.	.	.	.	.	.	.	.	.	.	.	.
.	.	(32g\LLL	16ee'\JJ	.	.	.	.	.	.	.	.	.	.	(32bb-\LLL	(32bb-\LLL	(32bb-\LLL	(32bb-\LLL
.	.	32a\JJJ)	.	.	.	.	.	.	.	.	.	.	.	32aa\JJJ)	32aa\JJJ)	32aa\JJJ)	32aa\JJJ)
.	.	8b-'\L	16e'\LL	4c#/)	8AA/L	.	.	.	.	4c#\)	.	4cc#\)	.	16gg'\LL	16gg'\LL	16gg'\LL	16gg'\LL
.	.	.	16b-'\	.	.	.	.	.	.	.	.	.	.	(32gg\LLL	(32gg\LLL	(32gg\LLL	(32gg\LLL
.	.	.	.	.	.	.	.	.	.	.	.	.	.	32ff\JJJ)	32ff\JJJ)	32ff\JJJ)	32ff\JJJ)
.	.	8b-'\J	16g'\	.	8AA/J	.	.	.	.	.	.	.	.	16ee'\LL	16ee'\LL	16ee'\LL	16ee'\LL
.	.	.	16ee'\JJ	.	.	.	.	.	.	.	.	.	.	(32ee\LLL	(32ee\LLL	(32ee\LLL	(32ee\LLL
.	.	.	.	.	.	.	.	.	.	.	.	.	.	32dd\JJJ)	32dd\JJJ)	32dd\JJJ)	32dd\JJJ)
=44	=44	=44	=44	=44	=44	=44	=44	=44	=44	=44	=44	=44	=44	=44	=44	=44	=44
16AAA\LL	16AA\LL	16A\LL	2g/ 2A/	8.eee\L	16AA/LL	2a/	2ee\	2a\	2a\	2c#\	2e\	2cc#\	2ee\	8cc#\	(16cc#\LL	8cc#\	8cc#\
16EE\	16E\	16e\	.	.	16AA/	.	.	.	.	.	.	.	.	.	16ee\JJ)	.	.
16CC#\	16C#\	16c#\	.	.	16AA/	.	.	.	.	.	.	.	.	4ee\	4gg\	4ccc#\	4ccc#\
16AA\JJ	16A\JJ	16e\JJ	.	(32ccc#\LLL	16AA/	.	.	.	.	.	.	.	.	.	.	.	.
.	.	.	.	32ddd\JJJ)	.	.	.	.	.	.	.	.	.	.	.	.	.
16AAA\LL	16AA\LL	16A\LL	.	8eee\L	16AA/	.	.	.	.	.	.	.	.	.	.	.	.
16EE\	16E\	16e\	.	.	16AA/	.	.	.	.	.	.	.	.	.	.	.	.
16CC#\	16C#\	16c#\	.	(16A/LL	16AA/	.	.	.	.	.	.	.	.	8ee\	8gg\	8ccc#\	8ccc#\
16AA\JJ	16A\JJ	16e\JJ	.	16g/JJ)	16AA/JJ	.	.	.	.	.	.	.	.	.	.	.	.
=45	=45	=45	=45	=45	=45	=45	=45	=45	=45	=45	=45	=45	=45	=45	=45	=45	=45
2DD\	2D\	16A\LL	16A/LL	(4g/	4D\	2d/	2dd\	2d/	2d/	(4e\	(4g\	(4ee\	(4ggn\	8.dd\L	8.ddd\L	8.ddd\L	8.ddd\L
.	.	16e\	16e/	.	.	.	.	.	.	.	.	.	.	.	.	.	.
.	.	16A\	16A/	.	.	.	.	.	.	.	.	.	.	.	.	.	.
.	.	16a\JJ	16a/JJ	.	.	.	.	.	.	.	.	.	.	(32aa\LLL	(32aa\LLL	(32aa\LLL	(32aa\LLL
.	.	.	.	.	.	.	.	.	.	.	.	.	.	32gg\JJJ)	32gg\JJJ)	32gg\JJJ)	32gg\JJJ)
.	.	16A\LL	16A/LL	4f/)	4r	.	.	.	.	4d\)	4f\)	4dd\)	4ffn\)	16ff'\LL	16ff'\LL	16ff'\LL	16ff'\LL
.	.	16f\	16f/	.	.	.	.	.	.	.	.	.	.	(32aa\LLL	(32aa\LLL	(32aa\LLL	(32aa\LLL
.	.	.	.	.	.	.	.	.	.	.	.	.	.	32gg\JJJ)	32gg\JJJ)	32gg\JJJ)	32gg\JJJ)
.	.	16d\	16d/	.	.	.	.	.	.	.	.	.	.	16ff'\LL	16ff'\LL	16ff'\LL	16ff'\LL
.	.	16a\JJ	16a/JJ	.	.	.	.	.	.	.	.	.	.	(32ff\LLL	(32ff\LLL	(32ff\LLL	(32ff\LLL
.	.	.	.	.	.	.	.	.	.	.	.	.	.	32ee\JJJ)	32ee\JJJ)	32ee\JJJ)	32ee\JJJ)
=46	=46	=46	=46	=46	=46	=46	=46	=46	=46	=46	=46	=46	=46	=46	=46	=46	=46
16DD\LL	16D\LL	16d\LL	16f\LL	(8.ffz\L	2r	2r	2r	2r	2r	2f\	2f\	2r	2r	4dd\	4dd\	8dd\L	8dd\L
16BB-\	16B-\	16b-\	16dd\	.	.	.	.	.	.	.	.	.	.	.	.	.	.
16FF\	16F\	16f\	16b-\	.	.	.	.	.	.	.	.	.	.	.	.	8ff\J	8ff\J
16D\JJ	16d\JJ	16dd\JJ	16ff\JJ	32gg\LLL	.	.	.	.	.	.	.	.	.	.	.	.	.
.	.	.	.	32aa\JJJ)	.	.	.	.	.	.	.	.	.	.	.	.	.
16DD\LL	16D\LL	16d\LL	16f\LL	(8.bb-z\L	.	.	.	.	.	.	.	.	.	4ff\	[4bb-\	(8.bb-\L	(8.bb-\L
16BB-\	16B-\	16b-\	16dd\	.	.	.	.	.	.	.	.	.	.	.	.	.	.
16FF\	16F\	16f\	16b-\	.	.	.	.	.	.	.	.	.	.	.	.	.	.
16D\JJ	16d\JJ	16dd\JJ	16ff\JJ	32ccc\LLL	.	.	.	.	.	.	.	.	.	.	.	32ccc\LLL	32ccc\LLL
.	.	.	.	32ddd\JJJ)	.	.	.	.	.	.	.	.	.	.	.	32ddd\JJJ)	32ddd\JJJ)
=47	=47	=47	=47	=47	=47	=47	=47	=47	=47	=47	=47	=47	=47	=47	=47	=47	=47
16CC\LL	16C\LL	16c\LL	16e-\LL	([8eee-z\L	2r	2r	2r	2r	2r	4g\	4g\	2r	2r	4ee-\	4bb-\]	2eee-\	2eee-\
16GG\	16G\	16g\	16b-\	.	.	.	.	.	.	.	.	.	.	.	.	.	.
16EE-\	16E-\	16e-\	16g\	32eee-\LLL]	.	.	.	.	.	.	.	.	.	.	.	.	.
.	.	.	.	32ddd\	.	.	.	.	.	.	.	.	.	.	.	.	.
16C\JJ	16c\JJ	16cc\JJ	16ee-\JJ	32ccc\	.	.	.	.	.	.	.	.	.	.	.	.	.
.	.	.	.	32bb-\JJJ)	.	.	.	.	.	.	.	.	.	.	.	.	.
16FF\LL	16F\LL	16f\LL	16f\LL	8aa\L	.	.	.	.	.	4f\	4f\	.	.	4cc\	4aa\	.	.
16C\	16c\	16cc\	16ee-\	.	.	.	.	.	.	.	.	.	.	.	.	.	.
16AA\	16A\	16a\	16cc\	(16ccc\LL	.	.	.	.	.	.	.	.	.	.	.	.	.
16F\JJ	16f\JJ	16ff\JJ	16ee-\JJ	16ee-\JJ)	.	.	.	.	.	.	.	.	.	.	.	.	.
*	*	*	*	*	*	*	*	*	*	*clefF4	*clefF4	*	*	*	*	*	*
=48	=48	=48	=48	=48	=48	=48	=48	=48	=48	=48	=48	=48	=48	=48	=48	=48	=48
16BB-\LL	16B-\LL	16b-\LL	(32dd\LLL	(32dd\LLL	2r	2r	2r	2r	2r	16B-\LL	16B-\LL	2r	2r	16dd\LK	16bb-\LK	16ddd\LK	16ddd\LK
.	.	.	32ff\	32ff\	.	.	.	.	.	.	.	.	.	.	.	.	.
16D\	16d\	16dd\	32gg\	32gg\	.	.	.	.	.	16d\	16d\	.	.	(8gg\	(8gg\	(8gg\	(8gg\
.	.	.	32ff\	32ff\	.	.	.	.	.	.	.	.	.	.	.	.	.
16AA\	16A\	16a\	32gg\	32gg\	.	.	.	.	.	16A\	16A\	.	.	.	.	.	.
.	.	.	32ff\	32ff\	.	.	.	.	.	.	.	.	.	.	.	.	.
16C\JJ	16c\JJ	16cc\JJ	32gg\	32gg\	.	.	.	.	.	16c\JJ	16c\JJ	.	.	16ff\Jk)	16ff\Jk)	16ff\Jk)	16ff\Jk)
.	.	.	32ff\JJJ)	32ff\JJJ)	.	.	.	.	.	.	.	.	.	.	.	.	.
16GG\LL	16G\LL	16g\LL	(32b-\LLL	(32b-\LLL	.	.	.	.	.	16G\LL	16G\LL	.	.	16r	16r	16r	16r
.	.	.	32dd\	32dd\	.	.	.	.	.	.	.	.	.	.	.	.	.
16BB-\	16B-\	16b-\	32ee-\	32ee-\	.	.	.	.	.	16B-\	16B-\	.	.	(8ee-\L	(8ee-\L	(8ee-\L	(8ee-\L
.	.	.	32dd\	32dd\	.	.	.	.	.	.	.	.	.	.	.	.	.
16FF\	16F\	16f\	32ee-\	32ee-\	.	.	.	.	.	16F\	16F\	.	.	.	.	.	.
.	.	.	32dd\	32dd\	.	.	.	.	.	.	.	.	.	.	.	.	.
16AA\JJ	16A\JJ	16a\JJ	32ee-\	32ee-\	.	.	.	.	.	16A\JJ	16A\JJ	.	.	16dd\Jk)	16dd\Jk)	16dd\Jk)	16dd\Jk)
.	.	.	32dd\JJJ)	32dd\JJJ)	.	.	.	.	.	.	.	.	.	.	.	.	.
=49	=49	=49	=49	=49	=49	=49	=49	=49	=49	=49	=49	=49	=49	=49	=49	=49	=49
16EE-\LL	16E-\LL	16e-\LL	(32g\LLL	(32g\LLL	2r	2r	2r	2r	2r	16E-\LL	16E-\LL	2r	2r	16r	16r	16r	16r
.	.	.	32b-\	32b-\	.	.	.	.	.	.	.	.	.	.	.	.	.
16GG\	16G\	16g\	32cc\	32cc\	.	.	.	.	.	16G\	16G\	.	.	(8cc\L	(8cc\L	(8cc\L	(8cc\L
.	.	.	32b-\	32b-\	.	.	.	.	.	.	.	.	.	.	.	.	.
16DD\	16D\	16d\	32cc\	32cc\	.	.	.	.	.	16D\	16D\	.	.	.	.	.	.
.	.	.	32b-\	32b-\	.	.	.	.	.	.	.	.	.	.	.	.	.
16FF\JJ	16F\JJ	16f\JJ	32cc\	32cc\	.	.	.	.	.	16F\JJ	16F\JJ	.	.	16b-\Jk)	16b-\Jk)	16b-\Jk)	16b-\Jk)
.	.	.	32b-\JJJ)	32b-\JJJ)	.	.	.	.	.	.	.	.	.	.	.	.	.
16CC\LL	16C\LL	16c\LL	(32a\LLL	(32a\LLL	.	.	.	.	.	16C\LL	16C\LL	.	.	16a\LL	16a\LL	16a\LL	16a\LL
.	.	.	32ee-\)	32ee-\)	.	.	.	.	.	.	.	.	.	.	.	.	.
16C\	16c\	16c\	32ee-'\	32ee-'\	.	.	.	.	.	16C\	16C\	.	.	16ee-\	16ee-\	16ee-\	16ee-\
.	.	.	32ee-'\JJJ	32ee-'\JJJ	.	.	.	.	.	.	.	.	.	.	.	.	.
16BBB-\	16BB-\	16g\	(32g\LLL	(32g\LLL	.	.	.	.	.	16c\	16c\	.	.	16ee-\	16ee-\	16ee-\	16ee-\
.	.	.	32ee-\)	32ee-\)	.	.	.	.	.	.	.	.	.	.	.	.	.
16BB-\JJ	16B-\JJ	16g\JJ	32ee-'\	32ee-'\	.	.	.	.	.	16c\JJ	16c\JJ	.	.	16ee-\JJ	16ee-\JJ	16ee-\JJ	16ee-\JJ
.	.	.	32ee-'\JJJ	32ee-'\JJJ	.	.	.	.	.	.	.	.	.	.	.	.	.
=50	=50	=50	=50	=50	=50	=50	=50	=50	=50	=50	=50	=50	=50	=50	=50	=50	=50
16AAA/LL	16AA/LL	16f\LL	(32f/LLL	(32f/LLL	2r	2r	2r	2r	2r	2c\	2e-\	2r	2r	2f/	2ee-\	2ccc\	2ccc\
.	.	.	32g/)	32g/)	.	.	.	.	.	.	.	.	.	.	.	.	.
16AAA/	16AA/	16cc\ 16f\	32a'/	32a'/	.	.	.	.	.	.	.	.	.	.	.	.	.
.	.	.	32b-'/JJJ	32b-'/JJJ	.	.	.	.	.	.	.	.	.	.	.	.	.
16AAA/	16AA/	16cc\ 16f\	(32a\LLL	(32a\LLL	.	.	.	.	.	.	.	.	.	.	.	.	.
.	.	.	32b-\)	32b-\)	.	.	.	.	.	.	.	.	.	.	.	.	.
16AAA/JJ	16AA/JJ	16cc\JJ 16f\	32cc'\	32cc'\	.	.	.	.	.	.	.	.	.	.	.	.	.
.	.	.	32dd'\JJJ	32dd'\JJJ	.	.	.	.	.	.	.	.	.	.	.	.	.
16AAA/LL	16AA/LL	16cc\LL 16f\	32ee-'\LLL	32ee-'\LLL	.	.	.	.	.	.	.	.	.	.	.	.	.
.	.	.	32dd'\	32dd'\	.	.	.	.	.	.	.	.	.	.	.	.	.
16AAA/	16AA/	16cc\ 16f\	32cc'\	32cc'\	.	.	.	.	.	.	.	.	.	.	.	.	.
.	.	.	32b-'\JJJ	32b-'\JJJ	.	.	.	.	.	.	.	.	.	.	.	.	.
16AAA/	16AA/	16cc\ 16f\	32a'/LLL	32a'/LLL	.	.	.	.	.	.	.	.	.	.	.	.	.
.	.	.	32g'/	32g'/	.	.	.	.	.	.	.	.	.	.	.	.	.
16AAA/JJ	16AA/JJ	16cc\JJ 16f\	32f'/	32f'/	.	.	.	.	.	.	.	.	.	.	.	.	.
.	.	.	32e-'/JJJ	32e-'/JJJ	.	.	.	.	.	.	.	.	.	.	.	.	.
=51	=51	=51	=51	=51	=51	=51	=51	=51	=51	=51	=51	=51	=51	=51	=51	=51	=51
16BBB-/LL	16BB-/LL	16dd\LL 16f\	(32d\LLL	(32d\LLL	2r	2r	2r	2r	2r	4B-\	4d\	2r	2r	4dd\	4dd\	[2bb-\	[2bb-\
.	.	.	32b-\	32b-\	.	.	.	.	.	.	.	.	.	.	.	.	.
16BBB-/	16BB-/	16dd\ 16f\	32dd\	32dd\	.	.	.	.	.	.	.	.	.	.	.	.	.
.	.	.	32b-\JJJ	32b-\JJJ	.	.	.	.	.	.	.	.	.	.	.	.	.
16BBB-/	16BB-/	16dd\ 16f\	32dd\LLL	32dd\LLL	.	.	.	.	.	.	.	.	.	.	.	.	.
.	.	.	32b-\	32b-\	.	.	.	.	.	.	.	.	.	.	.	.	.
16BBB-/JJ	16BB-/JJ	16dd\JJ 16f\	32dd\	32dd\	.	.	.	.	.	.	.	.	.	.	.	.	.
.	.	.	32b-\JJJ)	32b-\JJJ)	.	.	.	.	.	.	.	.	.	.	.	.	.
16GG\LL	16G\LL	16b-\LL	(32e-\LLL	(32e-\LLL	.	.	.	.	.	4B-\	4B-\	.	.	4ee-\	4ee-\	.	.
.	.	.	32b-\	32b-\	.	.	.	.	.	.	.	.	.	.	.	.	.
16GG\	16G\	16b-\	32ee-\	32ee-\	.	.	.	.	.	.	.	.	.	.	.	.	.
.	.	.	32b-\JJJ	32b-\JJJ	.	.	.	.	.	.	.	.	.	.	.	.	.
16GG\	16G\	16b-\	32ee-\LLL	32ee-\LLL	.	.	.	.	.	.	.	.	.	.	.	.	.
.	.	.	32b-\	32b-\	.	.	.	.	.	.	.	.	.	.	.	.	.
16GG\JJ	16G\JJ	16b-\JJ	32ee-\	32ee-\	.	.	.	.	.	.	.	.	.	.	.	.	.
.	.	.	32b-\JJJ)	32b-\JJJ)	.	.	.	.	.	.	.	.	.	.	.	.	.
=52	=52	=52	=52	=52	=52	=52	=52	=52	=52	=52	=52	=52	=52	=52	=52	=52	=52
16DD\LL	16D\LL	16b-\LL	(32d\LLL	(32d\LLL	2r	2r	2r	2r	2r	2B-\	2B-\	2r	2r	4ff\	4ff\	2bb-\]	2bb-\]
.	.	.	32b-\	32b-\	.	.	.	.	.	.	.	.	.	.	.	.	.
16DD\	16D\	16b-\	32ff\	32ff\	.	.	.	.	.	.	.	.	.	.	.	.	.
.	.	.	32b-\JJJ	32b-\JJJ	.	.	.	.	.	.	.	.	.	.	.	.	.
16DD\	16D\	16b-\	32ff\LLL	32ff\LLL	.	.	.	.	.	.	.	.	.	.	.	.	.
.	.	.	32b-\	32b-\	.	.	.	.	.	.	.	.	.	.	.	.	.
16DD\JJ	16D\JJ	16b-\	32ff\	32ff\	.	.	.	.	.	.	.	.	.	.	.	.	.
.	.	.	32b-\JJJ)	32b-\JJJ)	.	.	.	.	.	.	.	.	.	.	.	.	.
16EE-\LL	16E-\LL	16b-\	(32gg\LLL	(32gg\LLL	.	.	.	.	.	.	.	.	.	8gg\L	8gg\L	.	.
.	.	.	32b-\	32b-\	.	.	.	.	.	.	.	.	.	.	.	.	.
16EE-\	16E-\	16b-\	32gg\	32gg\	.	.	.	.	.	.	.	.	.	.	.	.	.
.	.	.	32b-\JJJ	32b-\JJJ	.	.	.	.	.	.	.	.	.	.	.	.	.
16DD\	16D\	16b-\	32aa-\LLL	32aa-\LLL	.	.	.	.	.	.	.	.	.	8ff\J	8aa-\J	.	.
.	.	.	32b-\	32b-\	.	.	.	.	.	.	.	.	.	.	.	.	.
16DD\JJ	16D\JJ	16b-\JJ	32aa-\	32aa-\	.	.	.	.	.	.	.	.	.	.	.	.	.
.	.	.	32b-\JJJ)	32b-\JJJ)	.	.	.	.	.	.	.	.	.	.	.	.	.
=53	=53	=53	=53	=53	=53	=53	=53	=53	=53	=53	=53	=53	=53	=53	=53	=53	=53
16EE-\LL	16E-\LL	16b-\LL	(32e-\LLL	(32e-\LLL	2r	2r	2r	2r	2r	2E-\	2E-\	2r	2r	(4gg\	(4gg\	(4bb-\	(4bb-\
.	.	.	32b-\	32b-\	.	.	.	.	.	.	.	.	.	.	.	.	.
16EE-\	16E-\	16b-\	32gg\	32gg\	.	.	.	.	.	.	.	.	.	.	.	.	.
.	.	.	32b-\JJJ)	32b-\JJJ)	.	.	.	.	.	.	.	.	.	.	.	.	.
16EE-\	16E-\	16b-\	(32e-\LLL	(32e-\LLL	.	.	.	.	.	.	.	.	.	.	.	.	.
.	.	.	32b-\	32b-\	.	.	.	.	.	.	.	.	.	.	.	.	.
16EE-\	16E-\	16b-\JJ	32gg\	32gg\	.	.	.	.	.	.	.	.	.	.	.	.	.
.	.	.	32b-\JJJ)	32b-\JJJ)	.	.	.	.	.	.	.	.	.	.	.	.	.
16EE-\	16E-\	16cc\LL	(32e-\LLL	(32e-\LLL	.	.	.	.	.	.	.	.	.	4cc\)	4aa\)	4ff\)	4ff\)
.	.	.	32cc\	32cc\	.	.	.	.	.	.	.	.	.	.	.	.	.
16EE-\	16E-\	16cc\	32aa\	32aa\	.	.	.	.	.	.	.	.	.	.	.	.	.
.	.	.	32cc\JJJ)	32cc\JJJ)	.	.	.	.	.	.	.	.	.	.	.	.	.
16EE-\	16E-\	16cc\	(32e-\LLL	(32e-\LLL	.	.	.	.	.	.	.	.	.	.	.	.	.
.	.	.	32cc\	32cc\	.	.	.	.	.	.	.	.	.	.	.	.	.
16EE-\JJ	16E-\JJ	16cc\JJ	32aa\	32aa\	.	.	.	.	.	.	.	.	.	.	.	.	.
.	.	.	32cc\JJJ)	32cc\JJJ)	.	.	.	.	.	.	.	.	.	.	.	.	.
=54	=54	=54	=54	=54	=54	=54	=54	=54	=54	=54	=54	=54	=54	=54	=54	=54	=54
16DD\LL	16D\LL	16f\LL	(32d\LLL	(32d\LLL	2r	2r	2r	2r	2r	8D\L	8D\L	2r	2r	(4b-\	(8bb-\L	(8fff\L	(8fff\L
.	.	.	32b-\	32b-\	.	.	.	.	.	.	.	.	.	.	.	.	.
16DD\	16D\	16f\	32bb-\	32bb-\	.	.	.	.	.	.	.	.	.	.	.	.	.
.	.	.	32b-\JJJ)	32b-\JJJ)	.	.	.	.	.	.	.	.	.	.	.	.	.
16EE-\	16E-\	16b-\	(32e-\LLL	(32e-\LLL	.	.	.	.	.	8E-\	8E-\	.	.	.	8gg\	8eee-\	8eee-\
.	.	.	32b-\	32b-\	.	.	.	.	.	.	.	.	.	.	.	.	.
16EE-\JJ	16E-\JJ	16b-\JJ	32gg\	32gg\	.	.	.	.	.	.	.	.	.	.	.	.	.
.	.	.	32b-\JJJ)	32b-\JJJ)	.	.	.	.	.	.	.	.	.	.	.	.	.
16FF\LL	16F\LL	16b-\LL	(32f\LLL	(32f\LLL	.	.	.	.	.	8F\	8F\	.	.	8dd\L)	8ff\	8ddd\	8ddd\
.	.	.	32dd\	32dd\	.	.	.	.	.	.	.	.	.	.	.	.	.
16FF\	16F\	16b-\	32ff\	32ff\	.	.	.	.	.	.	.	.	.	.	.	.	.
.	.	.	32dd\JJJ)	32dd\JJJ)	.	.	.	.	.	.	.	.	.	.	.	.	.
16EE-\	16E-\	16f\	(32f\LLL	(32f\LLL	.	.	.	.	.	8E-\J	8E-\J	.	.	8cc\J	8aa\J)	8ccc\J)	8ccc\J)
.	.	.	32cc\	32cc\	.	.	.	.	.	.	.	.	.	.	.	.	.
16EE-\JJ	16E-\JJ	16f\JJ	32aa\	32aa\	.	.	.	.	.	.	.	.	.	.	.	.	.
.	.	.	32cc\JJJ)	32cc\JJJ)	.	.	.	.	.	.	.	.	.	.	.	.	.
=55	=55	=55	=55	=55	=55	=55	=55	=55	=55	=55	=55	=55	=55	=55	=55	=55	=55
16DD\LL	16D\LL	16f\LL	(32d\LLL	(32d\LLL	2r	2r	2r	2r	2r	8D/L	8D/L	2r	2r	(4b-\	(8bb-\L	(8fff\L	(8fff\L
.	.	.	32b-\	32b-\	.	.	.	.	.	.	.	.	.	.	.	.	.
16DD\	16D\	16f\	32bb-\	32bb-\	.	.	.	.	.	.	.	.	.	.	.	.	.
.	.	.	32b-\JJJ)	32b-\JJJ)	.	.	.	.	.	.	.	.	.	.	.	.	.
16EE-\	16E-\	16b-\	(32e-\LLL	(32e-\LLL	.	.	.	.	.	8E-/	8E-/	.	.	.	8gg\	8eee-\	8eee-\
.	.	.	32b-\	32b-\	.	.	.	.	.	.	.	.	.	.	.	.	.
16EE-\JJ	16E-\JJ	16b-\JJ	32gg\	32gg\	.	.	.	.	.	.	.	.	.	.	.	.	.
.	.	.	32b-\JJJ)	32b-\JJJ)	.	.	.	.	.	.	.	.	.	.	.	.	.
16FF\LL	16F\LL	16b-\LL	(32f\LLL	(32f\LLL	.	.	.	.	.	8F/	8F/	.	.	8dd\L)	8ff\	8ddd\	8ddd\
.	.	.	32dd\	32dd\	.	.	.	.	.	.	.	.	.	.	.	.	.
16FF\	16F\	16b-\	32ff\	32ff\	.	.	.	.	.	.	.	.	.	.	.	.	.
.	.	.	32dd\JJJ)	32dd\JJJ)	.	.	.	.	.	.	.	.	.	.	.	.	.
16FF\	16F\	16e-\	(32f\LLL	(32f\LLL	.	.	.	.	.	8FF/J	8FF/J	.	.	8cc\J	8aa\J)	8ccc\J)	8ccc\J)
.	.	.	32cc\	32cc\	.	.	.	.	.	.	.	.	.	.	.	.	.
16FF\JJ	16F\JJ	16e-\JJ	32aa\	32aa\	.	.	.	.	.	.	.	.	.	.	.	.	.
.	.	.	32cc\JJJ)	32cc\JJJ)	.	.	.	.	.	.	.	.	.	.	.	.	.
=56	=56	=56	=56	=56	=56	=56	=56	=56	=56	=56	=56	=56	=56	=56	=56	=56	=56
2r	2r	2r	2r	2r	2r	2r	2r	2r	2r	2r	2r	2r	2r	2r	2r	2r	2r
=57	=57	=57	=57	=57	=57	=57	=57	=57	=57	=57	=57	=57	=57	=57	=57	=57	=57
(4BB-\	(4B-\	(4B-/	[2f/	(8..dd\L	2r	2r	2r	2r	2r	2r	2r	2r	2r	2r	2r	2r	2r
.	.	.	.	32ee-\Jkk)	.	.	.	.	.	.	.	.	.	.	.	.	.
4AA\)	4A\)	4A/)	.	8cc'\L	.	.	.	.	.	.	.	.	.	.	.	.	.
.	.	.	.	8ff'\J	.	.	.	.	.	.	.	.	.	.	.	.	.
=58	=58	=58	=58	=58	=58	=58	=58	=58	=58	=58	=58	=58	=58	=58	=58	=58	=58
(2GG\	(2G\	(2G/	8f/L]	8b-\	2r	2r	2r	2r	2r	2r	2r	2r	2r	2r	2r	2r	2r
.	.	.	8B-/J	8r	.	.	.	.	.	.	.	.	.	.	.	.	.
.	.	.	[4e-z/	8r	.	.	.	.	.	.	.	.	.	.	.	.	.
.	.	.	.	(8ggz\	.	.	.	.	.	.	.	.	.	.	.	.	.
=59	=59	=59	=59	=59	=59	=59	=59	=59	=59	=59	=59	=59	=59	=59	=59	=59	=59
8GG-\L)	8G-\L)	8G-/L)	8e-/L]	8a/L)	2r	2r	2r	2r	2r	2r	2r	2r	2r	2r	2r	2r	2r
8FF\	8F\	8F/	8d/	8b-/	.	.	.	.	.	.	.	.	.	.	.	.	.
8EE-\	8E-\	8E-/	8c/	8cc/	.	.	.	.	.	.	.	.	.	.	.	.	.
8FF\J	8F\J	8F/J	8e-/J	8a/J	.	.	.	.	.	.	.	.	.	.	.	.	.
=60	=60	=60	=60	=60	=60	=60	=60	=60	=60	=60	=60	=60	=60	=60	=60	=60	=60
16BBB-\LL	16BB-\LL	2B-/	4d/ 4B-/	(8..ff\L)	4D\	4d/	4dd\	4D/	4d/	2B-\	2B-\	2r	2r	2dd\	(8..ff\L	4.dd\	4.dd\
16FF\	16F\	.	.	.	.	.	.	.	.	.	.	.	.	.	.	.	.
16BB-\	16B-\	.	.	.	.	.	.	.	.	.	.	.	.	.	.	.	.
16FF\JJ	16F\JJ	.	.	.	.	.	.	.	.	.	.	.	.	.	.	.	.
.	.	.	.	32gg\Jkk)	.	.	.	.	.	.	.	.	.	.	32gg\Jkk)	.	.
16BB-\LL	16B-\LL	.	4r	8ff'\L	4r	4r	4r	4r	4r	.	.	.	.	.	8ff'\L	.	.
16FF\	16F\	.	.	.	.	.	.	.	.	.	.	.	.	.	.	.	.
16DD\	16D\	.	.	8bb-'\J	.	.	.	.	.	.	.	.	.	.	8bb-'\J	8b-\	8b-\
16BBB-\JJ	16BB-\JJ	.	.	.	.	.	.	.	.	.	.	.	.	.	.	.	.
=61	=61	=61	=61	=61	=61	=61	=61	=61	=61	=61	=61	=61	=61	=61	=61	=61	=61
4FFF/	16F\LL	16F/LL	(8..ccz\L	(4bb-\	2r	2r	2r	2r	2r	16F\LL	16F\LL	2r	2r	(8..cc\L	(4bb-\	16f\LL	16f\LL
.	16c\	16c/	.	.	.	.	.	.	.	16c\	16c\	.	.	.	.	16cc\	16cc\
.	16f\	16f/	.	.	.	.	.	.	.	16f\	16f\	.	.	.	.	16ff\	16ff\
.	16c\JJ	16c/JJ	.	.	.	.	.	.	.	16c\JJ	16c\JJ	.	.	.	.	16cc\JJ	16cc\JJ
.	.	.	32dd\Jkk)	.	.	.	.	.	.	.	.	.	.	32dd\Jkk)	.	.	.
4r	16f\LL	16f/LL	8cc'\L	4aa\)	.	.	.	.	.	16f\LL	16f\LL	.	.	8cc'\L	4aa\)	16ff\LL	16ff\LL
.	16c\	16c/	.	.	.	.	.	.	.	16c\	16c\	.	.	.	.	16cc\	16cc\
.	16A\	16A/	8ff'\J	.	.	.	.	.	.	16A\	16A\	.	.	8ff'\J	.	16a\	16a\
.	16F\JJ	16F/JJ	.	.	.	.	.	.	.	16F\JJ	16F\JJ	.	.	.	.	16f\JJ	16f\JJ
=62	=62	=62	=62	=62	=62	=62	=62	=62	=62	=62	=62	=62	=62	=62	=62	=62	=62
16CC\LL	16C\LL	2C/	(4ff\	(8..gg\L	2r	2r	2r	2r	2r	2C/	2C/	2r	2r	(4ff\	(8..gg\L	4cc\	4cc\
16GG\	16G\	.	.	.	.	.	.	.	.	.	.	.	.	.	.	.	.
16C\	16c\	.	.	.	.	.	.	.	.	.	.	.	.	.	.	.	.
16GG\JJ	16G\JJ	.	.	.	.	.	.	.	.	.	.	.	.	.	.	.	.
.	.	.	.	32aa-\Jkk)	.	.	.	.	.	.	.	.	.	.	32aa-\Jkk)	.	.
16C\LL	16c\LL	.	4ee-\)	8gg'\L	.	.	.	.	.	.	.	.	.	4ee-\)	8gg'\L	4r	4r
16GG\	16G\	.	.	.	.	.	.	.	.	.	.	.	.	.	.	.	.
16EE-\	16E-\	.	.	8ccc'\J	.	.	.	.	.	.	.	.	.	.	8ccc'\J	.	.
16CC\JJ	16C\JJ	.	.	.	.	.	.	.	.	.	.	.	.	.	.	.	.
=63	=63	=63	=63	=63	=63	=63	=63	=63	=63	=63	=63	=63	=63	=63	=63	=63	=63
4GGG/	16G\LL	16G/LL	(8..dd\L	(4ccc\	2r	2r	2r	2r	2r	16G\LL	16G\LL	2r	2r	(8..dd\L	(4ccc\	16g\LL	16g\LL
.	16d\	16d/	.	.	.	.	.	.	.	16d\	16d\	.	.	.	.	16dd\	16dd\
.	16g\	16g/	.	.	.	.	.	.	.	16g\	16g\	.	.	.	.	16gg\	16gg\
.	16d\JJ	16d/JJ	.	.	.	.	.	.	.	16d\JJ	16d\JJ	.	.	.	.	16dd\JJ	16dd\JJ
.	.	.	32ee-\Jkk)	.	.	.	.	.	.	.	.	.	.	32ee-\Jkk)	.	.	.
4r	16g\LL	16g/LL	8dd'\L	4bb-\)	.	.	.	.	.	16g\LL	16g\LL	.	.	8dd'\L	4bb-\)	16gg\LL	16gg\LL
.	16d\	16d/	.	.	.	.	.	.	.	16d\	16d\	.	.	.	.	16dd\	16dd\
.	16B-\	16B-/	8gg'\J	.	.	.	.	.	.	16B-\	16B-\	.	.	8gg'\J	.	16b-\	16b-\
.	16G\JJ	16G/JJ	.	.	.	.	.	.	.	16G\JJ	16G\JJ	.	.	.	.	16g\JJ	16g\JJ
=64	=64	=64	=64	=64	=64	=64	=64	=64	=64	=64	=64	=64	=64	=64	=64	=64	=64
16DD\LL	16D\LL	4.D/	(4gg\	(8..aa\L	4D\	4d/	4dd\	4D/	4d/	2D\	2D\	2r	2r	(4gg\	(8..aa\L	4dd\	4dd\
16AA\	16A\	.	.	.	.	.	.	.	.	.	.	.	.	.	.	.	.
16D\	16d\	.	.	.	.	.	.	.	.	.	.	.	.	.	.	.	.
16AA\JJ	16A\JJ	.	.	.	.	.	.	.	.	.	.	.	.	.	.	.	.
.	.	.	.	32bb-\Jkk)	.	.	.	.	.	.	.	.	.	.	32bb-\Jkk)	.	.
16D\LL	16d\LL	.	4ff#\)	8aa'\L	4r	4r	4r	4r	4r	.	.	.	.	4ff#\)	8aa'\L	16r	16r
16AA\	16A\	.	.	.	.	.	.	.	.	.	.	.	.	.	.	16ddd\LL	16ddd\LL
16FF#\	16F#\	8d\	.	8ddd'\J	.	.	.	.	.	.	.	.	.	.	8ddd'\J	16ddd\	16ddd\
16DD\JJ	16D\JJ	.	.	.	.	.	.	.	.	.	.	.	.	.	.	16ddd\JJ	16ddd\JJ
=65	=65	=65	=65	=65	=65	=65	=65	=65	=65	=65	=65	=65	=65	=65	=65	=65	=65
(16EE-z\LL	(16E-z\LL	(16e-z\LL	(16ggz\LL	(16dddz\LL	2r	2r	2r	2r	2r	(16E-z\LL	(16E-z\LL	2r	2r	(4ggz\	(16dddz\LL	(16dddz\LL	(16dddz\LL
16E-\)	16e-\)	16ee-\)	16g\)	16ccc\)	.	.	.	.	.	16e-\)	16e-\)	.	.	.	16ccc\)	16ccc\)	16ccc\)
16E-'\	16e-'\	16ee-'\	16g'\	16ccc'\	.	.	.	.	.	16e-'\	16e-'\	.	.	.	16ccc'\	16ccc'\	16ccc'\
16E-'\JJ	16e-'\JJ	16ee-'\JJ	16g'\JJ	16ccc'\JJ	.	.	.	.	.	16e-'\JJ	16e-'\JJ	.	.	.	16ccc'\JJ	16ccc'\JJ	16ccc'\JJ
(16DDz\LL	(16Dz\LL	(16dz\LL	(16fz\LL	(16cccz\LL	.	.	.	.	.	(16Dz\LL	(16Dz\LL	.	.	4ffz\)	(16cccz\LL	(16cccz\LL	(16cccz\LL
16D\)	16d\)	16dd\)	16ff\)	16bb-\)	.	.	.	.	.	16d\)	16d\)	.	.	.	16bb-\)	16bb-\)	16bb-\)
16D'\	16d'\	16dd'\	16ff'\	16bb-'\	.	.	.	.	.	16d'\	16d'\	.	.	.	16bb-'\	16bb-'\	16bb-'\
16D'\JJ	16d'\JJ	16dd'\JJ	16ff'\JJ	16bb-'\JJ	.	.	.	.	.	16d'\JJ	16d'\JJ	.	.	.	16bb-'\JJ	16bb-'\JJ	16bb-'\JJ
=66	=66	=66	=66	=66	=66	=66	=66	=66	=66	=66	=66	=66	=66	=66	=66	=66	=66
(16CCz\LL	(16Cz\LL	(16cz\LL	(16ee-z/LL	(16bb-z\LL	2r	2r	2r	2r	2r	(16Cz\LL	(16Cz\LL	2r	2r	(4ee-z\	(16bb-z\LL	(16bb-z\LL	(16bb-z\LL
16C\)	16c\)	16cc\)	16e-/)	16aa\)	.	.	.	.	.	16c\)	16c\)	.	.	.	16aa\)	16aa\)	16aa\)
16C'\	16c'\	16cc'\	16e-'/	16aa'\	.	.	.	.	.	16c'\	16c'\	.	.	.	16aa'\	16aa'\	16aa'\
16C'\JJ	16c'\JJ	16cc'\JJ	16e-'/JJ	16aa'\JJ	.	.	.	.	.	16c'\JJ	16c'\JJ	.	.	.	16aa'\JJ	16aa'\JJ	16aa'\JJ
(16BBB-z\LL	(16BB-z\LL	(16B-z\LL	(16dz/LL	(16aaz\LL	.	.	.	.	.	(16BB-z\LL	(16BB-z\LL	.	.	4ddz\)	(16aaz\LL	(16aaz\LL	(16aaz\LL
16BB-\)	16B-\)	16b-\)	16dd/)	16gg\)	.	.	.	.	.	16B-\)	16B-\)	.	.	.	16gg\)	16gg\)	16gg\)
16BB-'\	16B-'\	16b-'\	16dd'/	16gg'\	.	.	.	.	.	16B-'\	16B-'\	.	.	.	16gg'\	16gg'\	16gg'\
16BB-'\JJ	16B-'\JJ	16b-'\JJ	16dd'/JJ	16gg'\JJ	.	.	.	.	.	16B-'\JJ	16B-'\JJ	.	.	.	16gg'\JJ	16gg'\JJ	16gg'\JJ
=67	=67	=67	=67	=67	=67	=67	=67	=67	=67	=67	=67	=67	=67	=67	=67	=67	=67
16C\LL	16c\LL	16cc\LL	8a/L 8d'/	8ff#'\L 8a\	32D\LLL	2d/	2dd\	2D/	2d/	16c\LL	16c\LL	[2d/	[2dd\	8a\L	8ff#\L	8ff#\L	8ff#\L
.	.	.	.	.	32D\	.	.	.	.	.	.	.	.	.	.	.	.
16DD\	16D\	16d\	.	.	32D\	.	.	.	.	16D\	16D\	.	.	.	.	.	.
.	.	.	.	.	32D\	.	.	.	.	.	.	.	.	.	.	.	.
16BB-\	16B-\	16b-\	8b-/J 8d'/	8gg'\J 8b-\	32D\	.	.	.	.	16B-\	16B-\	.	.	8b-\J	8gg\J	8gg\J	8gg\J
.	.	.	.	.	32D\	.	.	.	.	.	.	.	.	.	.	.	.
16DD\JJ	16D\JJ	16d\JJ	.	.	32D\	.	.	.	.	16D\JJ	16D\JJ	.	.	.	.	.	.
.	.	.	.	.	32D\	.	.	.	.	.	.	.	.	.	.	.	.
16FF#\LL	16F#\LL	16f#\LL	8aa'\L 8cc\	8ccc'\L 8dd\	32D\	.	.	.	.	16F#\LL	16F#\LL	.	.	8aa\L	8ccc\L	8ccc\L	8ccc\L
.	.	.	.	.	32D\	.	.	.	.	.	.	.	.	.	.	.	.
16DD\	16D\	16d\	.	.	32D\	.	.	.	.	16D\	16D\	.	.	.	.	.	.
.	.	.	.	.	32D\	.	.	.	.	.	.	.	.	.	.	.	.
16GG\	16G\	16g\	8gg'\J 8b-\	8bb-'\J 8dd\	32D\	.	.	.	.	16G\	16G\	.	.	8gg\J	8bb-\J	8bb-\J	8bb-\J
.	.	.	.	.	32D\	.	.	.	.	.	.	.	.	.	.	.	.
16DD\JJ	16D\JJ	16d\JJ	.	.	32D\	.	.	.	.	16D\JJ	16D\JJ	.	.	.	.	.	.
.	.	.	.	.	32D\JJJ	.	.	.	.	.	.	.	.	.	.	.	.
=68	=68	=68	=68	=68	=68	=68	=68	=68	=68	=68	=68	=68	=68	=68	=68	=68	=68
8D\	8d\	8dd\	8ff#/ 8a/ 8d/	16aa'\LL 16dd\	32D\LLL	8..d/L	8..dd\L	8..d/L	8..d/L	2d\	2d\	2d/]	2dd\]	8.ff#\L	8.aa\L	16aa'\LL	16aa'\LL
.	.	.	.	.	32D\	.	.	.	.	.	.	.	.	.	.	.	.
.	.	.	.	16aa'\	32D\	.	.	.	.	.	.	.	.	.	.	16aa'\	16aa'\
.	.	.	.	.	32D\	.	.	.	.	.	.	.	.	.	.	.	.
8r	8r	8r	8r	16ff#'\	32D\	.	.	.	.	.	.	.	.	.	.	16ff#'\	16ff#'\
.	.	.	.	.	32D\	.	.	.	.	.	.	.	.	.	.	.	.
.	.	.	.	16ddd'\JJ	32D\	.	.	.	.	.	.	.	.	16dd\Jk	16ff#\Jk	16ddd'\JJ	16ddd'\JJ
.	.	.	.	.	32D\	32d/Jkk	32dd\Jkk	32d/Jkk	32d/Jkk	.	.	.	.	.	.	.	.
8DD\	8D\	8d\	8ff#/ 8a/ 8d/	16a'\LL	32D\	16d/LL	16dd\LL	16d/LL	16d/LL	.	.	.	.	8.ff#\L	8.aa\L	16a'\LL	16a'\LL
.	.	.	.	.	32D\	.	.	.	.	.	.	.	.	.	.	.	.
.	.	.	.	16ff#'\	32D\	16d/	16dd\	16d/	16d/	.	.	.	.	.	.	16ff#'\	16ff#'\
.	.	.	.	.	32D\	.	.	.	.	.	.	.	.	.	.	.	.
8r	8r	8r	8r	16dd'\	32D\	16d/	16dd\	16d/	16d/	.	.	.	.	.	.	16dd'\	16dd'\
.	.	.	.	.	32D\	.	.	.	.	.	.	.	.	.	.	.	.
.	.	.	.	16aa'\JJ	32D\	16d/JJ	16dd\JJ	16d/JJ	16d/JJ	.	.	.	.	16dd\Jk	16ff#\Jk	16aa'\JJ	16aa'\JJ
.	.	.	.	.	32D\JJJ	.	.	.	.	.	.	.	.	.	.	.	.
=69	=69	=69	=69	=69	=69	=69	=69	=69	=69	=69	=69	=69	=69	=69	=69	=69	=69
8DD\	8D\	8d\	8ff#/ 8a/ 8d/	16f#'\LL	32D\LLL	8..d/L	8..dd\L	8..d/L	8..d/L	2d\	2d\	[2d/	[2dd\	8.ff#\L	8.aa\L	16f#'\LL	16f#'\LL
.	.	.	.	.	32D\	.	.	.	.	.	.	.	.	.	.	.	.
.	.	.	.	16dd'\	32D\	.	.	.	.	.	.	.	.	.	.	16dd'\	16dd'\
.	.	.	.	.	32D\	.	.	.	.	.	.	.	.	.	.	.	.
8r	8r	8r	8r	16a'\	32D\	.	.	.	.	.	.	.	.	.	.	16a'\	16a'\
.	.	.	.	.	32D\	.	.	.	.	.	.	.	.	.	.	.	.
.	.	.	.	16ff#'\JJ	32D\	.	.	.	.	.	.	.	.	16dd\Jk	16ff#\Jk	16ff#'\JJ	16ff#'\JJ
.	.	.	.	.	32D\	32d/Jkk	32dd\Jkk	32d/Jkk	32d/Jkk	.	.	.	.	.	.	.	.
8DD\	8D\	8d\	8ff#/ 8a/ 8d/	16d'/LL	32D\	16d/LL	16dd\LL	16d/LL	16d/LL	.	.	.	.	8.ff#\L	8.aa\L	16d'/LL	16d'/LL
.	.	.	.	.	32D\	.	.	.	.	.	.	.	.	.	.	.	.
.	.	.	.	16a'/	32D\	16d/	16dd\	16d/	16d/	.	.	.	.	.	.	16a'/	16a'/
.	.	.	.	.	32D\	.	.	.	.	.	.	.	.	.	.	.	.
8r	8r	8r	8r	16f#'/	32D\	16d/	16dd\	16d/	16d/	.	.	.	.	.	.	16f#'/	16f#'/
.	.	.	.	.	32D\	.	.	.	.	.	.	.	.	.	.	.	.
.	.	.	.	16dd'/JJ	32D\	16d/JJ	16dd\JJ	16d/JJ	16d/JJ	.	.	.	.	16dd\Jk	16ff#\Jk	16dd'/JJ	16dd'/JJ
.	.	.	.	.	32D\JJJ	.	.	.	.	.	.	.	.	.	.	.	.
=70	=70	=70	=70	=70	=70	=70	=70	=70	=70	=70	=70	=70	=70	=70	=70	=70	=70
4DD\	4D\	4d\	4ff#/ 4a/ 4d/	16d'/LL	4D\	4d/	4dd\	4d/	4d/	4d\	4d\	8d/]	8dd\]	8ff#\	8dd\	8d/	8d/
.	.	.	.	16a'/	.	.	.	.	.	.	.	.	.	.	.	.	.
.	.	.	.	16f#'/	.	.	.	.	.	.	.	8r	8r	8r	8r	8r	8r
.	.	.	.	16dd'/JJ	.	.	.	.	.	.	.	.	.	.	.	.	.
4r	4r	4r	4r	16d'/LL	4r	4r	4r	4r	4r	4r	4r	4r	4r	4r	4r	4r	4r
.	.	.	.	16a'/	.	.	.	.	.	.	.	.	.	.	.	.	.
.	.	.	.	16f#'/	.	.	.	.	.	.	.	.	.	.	.	.	.
.	.	.	.	16dd'/JJ	.	.	.	.	.	.	.	.	.	.	.	.	.
=71	=71	=71	=71	=71	=71	=71	=71	=71	=71	=71	=71	=71	=71	=71	=71	=71	=71
2r	2r	2r	2r	16d'/LL	2r	2r	2r	2r	2r	2r	2r	2r	2r	2r	2r	2r	2r
.	.	.	.	16a'/	.	.	.	.	.	.	.	.	.	.	.	.	.
.	.	.	.	16f#'/	.	.	.	.	.	.	.	.	.	.	.	.	.
.	.	.	.	16dd'/JJ	.	.	.	.	.	.	.	.	.	.	.	.	.
.	.	.	.	16d'/LL	.	.	.	.	.	.	.	.	.	.	.	.	.
.	.	.	.	16a'/	.	.	.	.	.	.	.	.	.	.	.	.	.
.	.	.	.	16f#'/	.	.	.	.	.	.	.	.	.	.	.	.	.
.	.	.	.	16dd'/JJ	.	.	.	.	.	.	.	.	.	.	.	.	.
=72	=72	=72	=72	=72	=72	=72	=72	=72	=72	=72	=72	=72	=72	=72	=72	=72	=72
2r	2r	2r	2r	16d/LL	2r	2r	2r	2r	2r	2r	2r	2r	2r	2r	2r	2r	2r
.	.	.	.	16a/	.	.	.	.	.	.	.	.	.	.	.	.	.
.	.	.	.	16f#/	.	.	.	.	.	.	.	.	.	.	.	.	.
.	.	.	.	16cc/JJ	.	.	.	.	.	.	.	.	.	.	.	.	.
.	.	.	.	16d/LL	.	.	.	.	.	.	.	.	.	.	.	.	.
.	.	.	.	16a/	.	.	.	.	.	.	.	.	.	.	.	.	.
.	.	.	.	16f#/	.	.	.	.	.	.	.	.	.	.	.	.	.
.	.	.	.	16cc/JJ	.	.	.	.	.	.	.	.	.	.	.	.	.
=73	=73	=73	=73	=73	=73	=73	=73	=73	=73	=73	=73	=73	=73	=73	=73	=73	=73
2r	2r	2r	2r	16d/LL	2r	2r	2r	2r	2r	2r	16D\LL	2r	2r	2r	2r	2r	2r
.	.	.	.	16a/	.	.	.	.	.	.	16A\	.	.	.	.	.	.
.	.	.	.	16f#/	.	.	.	.	.	.	16F#\	.	.	.	.	.	.
.	.	.	.	16cc/JJ	.	.	.	.	.	.	16A\JJ	.	.	.	.	.	.
.	.	.	.	16d/LL	.	.	.	.	.	.	16D\LL	.	.	.	.	.	.
.	.	.	.	16a/	.	.	.	.	.	.	16A\	.	.	.	.	.	.
.	.	.	.	16f#/	.	.	.	.	.	.	16F#\	.	.	.	.	.	.
.	.	.	.	16cc/JJ	.	.	.	.	.	.	16c\JJ	.	.	.	.	.	.
=	=	=	=	=	=	=	=	=	=	=	=	=	=	=	=	=	=
*k[f#]	*k[f#]	*k[f#]	*k[f#]	*k[f#]	*	*	*	*	*	*k[f#]	*k[f#]	*	*	*k[f#]	*k[f#]	*k[f#]	*k[f#]
8GG\	8G\	8g\	16d'/LL	(8..b\L	2r	2r	2r	2r	2r	2r	16D\LL	2r	2r	2r	2r	2r	(8..bb\L
.	.	.	16b'/	.	.	.	.	.	.	.	16B\	.	.	.	.	.	.
8r	8r	8r	16g'/	.	.	.	.	.	.	.	16G\	.	.	.	.	.	.
.	.	.	16b'/JJ	.	.	.	.	.	.	.	16B\JJ	.	.	.	.	.	.
.	.	.	.	32cc\Jkk)	.	.	.	.	.	.	.	.	.	.	.	.	32ccc\Jkk)
8DD\	8D\	8f#\	16c'/LL	8a'\L	.	.	.	.	.	.	16C\LL	.	.	.	.	.	8aa'\L
.	.	.	16a'/	.	.	.	.	.	.	.	16A\	.	.	.	.	.	.
8r	8r	8r	16f#'/	8dd'\J	.	.	.	.	.	.	16F#\	.	.	.	.	.	8ddd'\J
.	.	.	16a'/JJ	.	.	.	.	.	.	.	16A\JJ	.	.	.	.	.	.
=75	=75	=75	=75	=75	=75	=75	=75	=75	=75	=75	=75	=75	=75	=75	=75	=75	=75
8EE\	8E\	8g\	8B/	8g/	2r	2r	2r	2r	2r	2r	8BB/	2r	2r	2r	2r	2r	8gg\
8r	8r	8r	8r	8r	.	.	.	.	.	.	8r	.	.	.	.	.	8r
8r	8r	8r	8r	8r	.	.	.	.	.	.	4r	.	.	.	.	.	8r
(8CCz/	(8Cz/	(8ez\	(8gz/	(8eez\	.	.	.	.	.	.	.	.	.	.	.	.	(8eeez\
=76	=76	=76	=76	=76	=76	=76	=76	=76	=76	=76	=76	=76	=76	=76	=76	=76	=76
8C\)	8c\)	8A/)	8d/)	8f#/)	2r	2r	2r	2r	2r	2r	2r	2r	2r	2r	2r	2r	8ff#\)
8BB'\L	8B'\L	8d'\L	8d'/L	8g'/L	.	.	.	.	.	.	.	.	.	.	.	.	8gg'\L
8AA'\	8A'\	8c'\J	8f#'/	8a'/	.	.	.	.	.	.	.	.	.	.	.	.	8aa'\
8GG'\J	8G'\J	(16B/LL	8g'/J	8b'/J	.	.	.	.	.	.	.	.	.	.	.	.	8bb'\J
.	.	16G/JJ)	.	.	.	.	.	.	.	.	.	.	.	.	.	.	.
=77	=77	=77	=77	=77	=77	=77	=77	=77	=77	=77	=77	=77	=77	=77	=77	=77	=77
4DD\	4D\	4D/	8a'/L	8cc'/L	2r	2r	2r	2r	2r	2r	2r	2r	2r	2r	2r	2r	8ccc\L
.	.	.	(16g/LL)	(16b/LL)	.	.	.	.	.	.	.	.	.	.	.	.	(16bb\LL)
.	.	.	32f#/LLL	32a/LLL	.	.	.	.	.	.	.	.	.	.	.	.	32aa\LLL
.	.	.	32g/JJJ)	32b/JJJ)	.	.	.	.	.	.	.	.	.	.	.	.	32bb\JJJ)
4r	4r	4r	8f#/	8a/	.	.	.	.	.	.	.	.	.	.	.	.	8aa\
.	.	.	8r	8r	.	.	.	.	.	.	.	.	.	.	.	.	8r
=78	=78	=78	=78	=78	=78	=78	=78	=78	=78	=78	=78	=78	=78	=78	=78	=78	=78
8GG\	8G\	8D/	8d/	(8..b\L	2r	2r	2r	2r	2r	2r	2r	2r	2r	2r	2r	2r	(8..bb\L
8r	8r	8r	8r	.	.	.	.	.	.	.	.	.	.	.	.	.	.
.	.	.	.	32cc\Jkk)	.	.	.	.	.	.	.	.	.	.	.	.	32ccc\Jkk)
8DD\	8D\	8F#/	8c/	8a'\L	.	.	.	.	.	.	.	.	.	.	.	.	8aa'\L
8r	8r	8r	8r	8dd'\J	.	.	.	.	.	.	.	.	.	.	.	.	8ddd'\J
=79	=79	=79	=79	=79	=79	=79	=79	=79	=79	=79	=79	=79	=79	=79	=79	=79	=79
(2EE\	(2E\	(2G/	(2c#/	8g'/L	2r	2r	2r	2r	2r	2r	2r	2r	2r	2r	2r	2r	8gg'\L
.	.	.	.	8b'/	.	.	.	.	.	.	.	.	.	.	.	.	8bb'\
.	.	.	.	8e'/J	.	.	.	.	.	.	.	.	.	.	.	.	8ee'\J
.	.	.	.	(8b-z/	.	.	.	.	.	.	.	.	.	.	.	.	(8bb-z\
=80	=80	=80	=80	=80	=80	=80	=80	=80	=80	=80	=80	=80	=80	=80	=80	=80	=80
8FF#\)	8F#\)	8F#/)	8d/)	8d/)	2r	2r	2r	2r	2r	2r	2r	2r	2r	2r	2r	2r	8dd\)
8GG'\L	8G'\L	8G'/L	8d'/L	8g'/L	.	.	.	.	.	.	.	.	.	.	.	.	8gg'\L
8AA'\	8A'\	8A'/	8d'/	8f#'/	.	.	.	.	.	.	.	.	.	.	.	.	8ff#'\
8AAA'\J	8AA'\J	8G'/J	8c#'/J	8e'/J	.	.	.	.	.	.	.	.	.	.	.	.	8ee'\J
=81	=81	=81	=81	=81	=81	=81	=81	=81	=81	=81	=81	=81	=81	=81	=81	=81	=81
8r	8r	4F#/	4d/	4d/	2r	2r	2r	2r	2r	2r	2r	2r	2r	2r	2r	2r	4dd\
8AAA'/L	8AA'/L	.	.	.	.	.	.	.	.	.	.	.	.	.	.	.	.
8DDD'/J	8DD'/J	4r	4r	4r	.	.	.	.	.	.	.	.	.	.	.	.	4r
8r	8r	.	.	.	.	.	.	.	.	.	.	.	.	.	.	.	.
=82	=82	=82	=82	=82	=82	=82	=82	=82	=82	=82	=82	=82	=82	=82	=82	=82	=82
(4GG\	(4G\	(4D/	(4d/	(8..b\L	2r	2r	2r	2r	2r	2r	2r	2r	2r	2r	2r	2r	(8..bb\L
.	.	.	.	32cc\Jkk)	.	.	.	.	.	.	.	.	.	.	.	.	32ccc\Jkk)
4DD\)	4D\)	4F#/)	4c/)	16.a\LL	.	.	.	.	.	.	.	.	.	.	.	.	16.aa\LL
.	.	.	.	32dd'\kkk	.	.	.	.	.	.	.	.	.	.	.	.	32ddd'\kkk
.	.	.	.	16.dd'\	.	.	.	.	.	.	.	.	.	.	.	.	16.ddd'\
.	.	.	.	32dd'\JJk	.	.	.	.	.	.	.	.	.	.	.	.	32ddd'\JJk
=83	=83	=83	=83	=83	=83	=83	=83	=83	=83	=83	=83	=83	=83	=83	=83	=83	=83
[4EE\	[4E\	[4G/	(4B/	16.dd\LL	2r	2r	2r	2r	2r	2r	2r	2r	2r	2r	2r	2r	16.ddd\LL
.	.	.	.	32g\kkk	.	.	.	.	.	.	.	.	.	.	.	.	32gg\kkk
.	.	.	.	16.g\	.	.	.	.	.	.	.	.	.	.	.	.	16.gg\
.	.	.	.	32g\JJk	.	.	.	.	.	.	.	.	.	.	.	.	32gg\JJk
16.EE/LL]	16.E/LL]	16.G/LL]	16.c/LL)	16.g\LL	.	.	.	.	.	.	.	.	.	.	.	.	16.gg\LL
32CCz/kkk	32Cz/kkk	32cz/kkk	32gz/kkk	32eez\kkk	.	.	.	.	.	.	.	.	.	.	.	.	32eee\kkk
16.CC/	16.C/	16.c/	16.g/	16.ee\	.	.	.	.	.	.	.	.	.	.	.	.	16.eee\
32CC/JJk	32C/JJk	32c/JJk	32g/JJk	32ee\JJk	.	.	.	.	.	.	.	.	.	.	.	.	32eee\JJk
=84	=84	=84	=84	=84	=84	=84	=84	=84	=84	=84	=84	=84	=84	=84	=84	=84	=84
8C'\L	8c'\L	8A'/L	16.f#/LL	16.f#/LL	2r	2r	2r	2r	2r	2d\	2d\	2r	2r	2r	2r	2r	16.ff#\LL
.	.	.	32d/kkk	32d/kkk	.	.	.	.	.	.	.	.	.	.	.	.	32dd\kkk
8BB'\	8B'\	8G'/	16.g/	16.g/	.	.	.	.	.	.	.	.	.	.	.	.	16.gg\
.	.	.	32d/JJk	32d/JJk	.	.	.	.	.	.	.	.	.	.	.	.	32dd\JJk
8AA'\	8A'\	8c'/	16.f#/LL	16.a/LL	.	.	.	.	.	.	.	.	.	.	.	.	16.aa\LL
.	.	.	32d/kkk	32d/kkk	.	.	.	.	.	.	.	.	.	.	.	.	32dd\kkk
8GG'\J	8G'\J	8B'/J	16.g/	16.b/	.	.	.	.	.	.	.	.	.	.	.	.	16.bb\
.	.	.	32d/JJk	32d/JJk	.	.	.	.	.	.	.	.	.	.	.	.	32dd\JJk
=85	=85	=85	=85	=85	=85	=85	=85	=85	=85	=85	=85	=85	=85	=85	=85	=85	=85
4DD\	4D\	4D/	8a/L	8cc/L	2r	2r	2r	2r	2r	8c\L	8c\L	2r	2r	2r	2r	2r	8ccc\L
.	.	.	(16g/LL)	(16b/LL)	.	.	.	.	.	(16B\LL)	(16B\LL)	.	.	.	.	.	(16bb\LL)
.	.	.	32f#/LLL	32a/LLL	.	.	.	.	.	32A\LLL	32A\LLL	.	.	.	.	.	32aa\LLL
.	.	.	32g/JJJ)	32b/JJJ)	.	.	.	.	.	32B\JJJ)	32B\JJJ)	.	.	.	.	.	32bb\JJJ)
4r	4r	4r	8f#/	(8a/L	.	.	.	.	.	(8A\L	(8A\L	.	.	.	.	.	(8aa\L
.	.	.	8r	8a#/J)	.	.	.	.	.	8A#\J)	8A#\J)	.	.	.	.	.	8aa#\J)
=86	=86	=86	=86	=86	=86	=86	=86	=86	=86	=86	=86	=86	=86	=86	=86	=86	=86
2r	2r	(4G/	[4d/	(8..b\L	2r	2r	2r	2r	2r	(8..B\L	(8..B\L	2r	2r	2r	2r	2r	(8..bb\L
.	.	.	.	32cc\Jkk)	.	.	.	.	.	32c\Jkk)	32c\Jkk)	.	.	.	.	.	32ccc\Jkk)
.	.	16.F#/LL)	16.d/LL]	16.a\LL	.	.	.	.	.	16.A\LL	16.A\LL	.	.	.	.	.	16.aa\LL
.	.	32f#'/kkk	32a'/kkk	32dd'\kkk	.	.	.	.	.	32f#'\kkk	32f#'\kkk	.	.	.	.	.	32ddd'\kkk
.	.	16.f#'/	16.a'/	16.dd'\	.	.	.	.	.	16.f#'\	16.f#'\	.	.	.	.	.	16.ddd'\
.	.	32f#'/JJk	32a'/JJk	32dd'\JJk	.	.	.	.	.	32f#'\JJk	32f#'\JJk	.	.	.	.	.	32ddd'\JJk
=87	=87	=87	=87	=87	=87	=87	=87	=87	=87	=87	=87	=87	=87	=87	=87	=87	=87
4r	4r	8..e\L	8..g/L	16.dd'\LL	4r	4r	4r	4r	4r	8..e\L	(8..e\L	4r	4r	4r	4r	4r	16.ddd'\LL
.	.	.	.	32cc#'\kkk	.	.	.	.	.	.	.	.	.	.	.	.	32ccc#'\kkk
.	.	.	.	16.cc#'\	.	.	.	.	.	.	.	.	.	.	.	.	16.ccc#'\
.	.	32c#'\Jkk	32e'/Jkk	32b-'\JJk	.	.	.	.	.	32c#'\Jkk	32c#\Jkk)	.	.	.	.	.	32bb-'\JJk
8r	8r	16.c#'\LL	16.e'/LL	16.b-'/LL	8r	8r	8r	8r	8r	16.c#'\LL	16.c#'\LL	8r	8r	8r	8r	8r	16.bb-'\LL
.	.	32c#'\kkk	32e'/kkk	32a'/kkk	.	.	.	.	.	32c#'\kkk	32c#'\kkk	.	.	.	.	.	32aa'\kkk
16.r	16.r	16.c#'\	16.e'/	16.a'/	16.r	16.r	16.r	16.r	16.r	16.c#'\	16.c#'\	16.r	16.r	16.r	16.r	16.r	16.aa'\
32CC#'/	32C#'/	32e'\JJk	32e'/JJk	32g'/JJk	32AA'/	32a'/	32a'/	32a'\	32a'\	32e'\JJk	32e'\JJk	32ee'\	32ggn'\	32ee'\	32gg'\	32gg'\	32gg'\JJk
=88	=88	=88	=88	=88	=88	=88	=88	=88	=88	=88	=88	=88	=88	=88	=88	=88	=88
16.CC#'/LL	16.C#'/LL	16.A'/LL	16.e'/LL	16.g'/LL	16.AA'/LL	16.a'/LL	16.a'\LL	16.a'\LL	16.a\LL	16.A'\LL	16.A'\LL	16.ee'\LL	16.ggn'\LL	16.ee'\LL	16.gg'\LL	16.gg'\LL	16.gg'\LL
32DD'/kkk	32D'/kkk	32A'/kkk	32d'/kkk	32f#'/kkk	32D'/kkk	32d'/kkk	32dd'\kkk	32a'\kkk	32a'\kkk	32A'\kkk	32A'\kkk	32dd'\kkk	32ff#'\kkk	32dd'\kkk	32ff#'\kkk	32ff#'\kkk	32ff#'\kkk
16.DD'/	16.D'/	16.A'/	16.d'/	16.f#'/	16.D'/	16.d'/	16.dd'\	16.a'\	16.a'\	16.A'\	16.A'\	16.dd'\	16.ff#'\	16.dd'\	16.ff#'\	16.ff#'\	16.ff#'\
32GGG'/JJk	32GG'/JJk	32G'/JJk	32B'/JJk	32e'/JJk	32D'/JJk	32d'/JJk	32dd'\JJk	32a'\JJk	32a'\JJk	32G'\JJk	32G'\JJk	32gn'\JJk	32ee'\JJk	32g'\JJk	32ee'\JJk	32ee'\JJk	32ee'\JJk
16.GGG'/LL	16.GG'/LL	16.G'/LL	16.B'/LL	16.e'/LL	16.D'/LL	16.d'/LL	16.dd'/LL	16.b'\LL	16.b'\LL	16.G'\LL	16.G'\LL	16.gn'/LL	16.ee'\LL	16.g'/LL	16.ee'\LL	16.ee'\LL	16.ee'\LL
32AAA'/kkk	32AA'/kkk	32F#'/kkk	32A'/kkk	32d'/kkk	32AA'/kkk	32a'/kkk	32a'/kkk	32d'\kkk	32a'\kkk	32F#'\kkk	32F#'\kkk	32f#'/kkk	32dd'\kkk	32f#'/kkk	32dd'\kkk	32dd'\kkk	32dd'\kkk
16.AAA'/	16.AA'/	16.F#'/	16.A'/	16.d'/	16.AA'/	16.a'/	16.a'/	16.d'\	16.a'\	16.F#'\	16.F#'\	16.f#'/	16.dd'\	16.f#'/	16.dd'\	16.dd'\	16.dd'\
32AAA'/JJk	32AA'/JJk	32E'/JJk	32c#'/JJk	32c#'/JJk	32AA'/JJk	32a'/JJk	32a'/JJk	32a'\JJk	32a'\JJk	32E'\JJk	32E'\JJk	32e'/JJk	32cc#'\JJk	32e'/JJk	32cc#'\JJk	32cc#'\JJk	32cc#'\JJk
=89	=89	=89	=89	=89	=89	=89	=89	=89	=89	=89	=89	=89	=89	=89	=89	=89	=89
16.AAA'/LL	16.AA'/LL	16.E'/LL	16.c#'/LL	16.c#'/LL	16.AA'/LL	16.a'/LL	16.a'\LL	16.a'/LL	16.a'\LL	16.E'\LL	16.E'\LL	16.e'/LL	16.cc#'\LL	16.e'/LL	16.cc#'\LL	16.cc#'\LL	16.cc#'\LL
32DDD'/kkk	32DD'/kkk	32F#'/kkk	32d'/kkk	32d'/kkk	32D'/kkk	32d'/kkk	32dd'\kkk	32d'/kkk	32a'\kkk	32D'\kkk	32D'\kkk	32f#'/kkk	32dd'\kkk	32f#'/kkk	32dd'\kkk	32dd'\kkk	32dd'\kkk
16.DDD'/	16.DD'/	16.F#'/	16.d'/	16.d'/	16.D'/	16.d'/	16.dd'\	16.d'/	16.a'\	16.D'\	16.D'\	16.f#'/	16.dd'\	16.f#'/	16.dd'\	16.dd'\	16.dd'\
32DDD'/JJk	32DD'/JJk	32F#'/JJk	32d'/JJk	32d'/JJk	32D'/JJk	32d'/JJk	32dd'\JJk	32d'/JJk	32a'\JJk	32D'\JJk	32D'\JJk	32f#'/JJk	32dd'\JJk	32f#'/JJk	32dd'\JJk	32dd'\JJk	32dd'\JJk
8DDD'/	8DD'/	8F#'/	8d'/	8d'/	8D'\	8d'/	8dd'\	8d'/	8a'\	8D'\	8D'\	8f#'/	8dd'\	8f#'/	8dd'\	8dd'\	8dd'\
8r	8r	8r	8r	8r	8r	8r	8r	8r	8r	8r	8r	8r	8r	8r	8r	8r	8r
=90	=90	=90	=90	=90	=90	=90	=90	=90	=90	=90	=90	=90	=90	=90	=90	=90	=90
2r	(8..c\L	2r	(4f#/	8a/L	2r	2r	2r	2r	2r	2r	2r	2r	2r	2r	2r	2r	2r
.	.	.	.	16d/LL	.	.	.	.	.	.	.	.	.	.	.	.	.
.	.	.	.	32r	.	.	.	.	.	.	.	.	.	.	.	.	.
.	32d\Jkk)	.	.	32a/JJk	.	.	.	.	.	.	.	.	.	.	.	.	.
.	8B'\L	.	4g#/)	8b/L	.	.	.	.	.	.	.	.	.	.	.	.	.
.	8e'\J	.	.	16d/LL	.	.	.	.	.	.	.	.	.	.	.	.	.
.	.	.	.	32r	.	.	.	.	.	.	.	.	.	.	.	.	.
.	.	.	.	32b\JJk	.	.	.	.	.	.	.	.	.	.	.	.	.
=91	=91	=91	=91	=91	=91	=91	=91	=91	=91	=91	=91	=91	=91	=91	=91	=91	=91
2r	4A\	2r	8a/L	8cc\L	2r	2r	2r	2r	2r	2r	2r	2r	2r	2r	2r	2r	2r
.	.	.	(16b/LL)	(16dd\LL)	.	.	.	.	.	.	.	.	.	.	.	.	.
.	.	.	32a/LLL	32cc\LLL	.	.	.	.	.	.	.	.	.	.	.	.	.
.	.	.	32b/JJJ)	32dd\JJJ)	.	.	.	.	.	.	.	.	.	.	.	.	.
.	4r	.	8cc\	8ee\	.	.	.	.	.	.	.	.	.	.	.	.	.
.	.	.	8r	8r	.	.	.	.	.	.	.	.	.	.	.	.	.
=92	=92	=92	=92	=92	=92	=92	=92	=92	=92	=92	=92	=92	=92	=92	=92	=92	=92
2r	2r	(8..fz\L	(4b\	(8dd\L	2r	2r	2r	2r	2r	2r	2r	2r	2r	2r	2r	2r	2r
.	.	.	.	16g\LL)	.	.	.	.	.	.	.	.	.	.	.	.	.
.	.	.	.	32r	.	.	.	.	.	.	.	.	.	.	.	.	.
.	.	32g\Jkk)	.	32dd'\JJk	.	.	.	.	.	.	.	.	.	.	.	.	.
.	.	8e'\L	4cc#\)	(8ee\L	.	.	.	.	.	.	.	.	.	.	.	.	.
.	.	8a'\J	.	16g\LL)	.	.	.	.	.	.	.	.	.	.	.	.	.
.	.	.	.	32r	.	.	.	.	.	.	.	.	.	.	.	.	.
.	.	.	.	32ee'\JJk	.	.	.	.	.	.	.	.	.	.	.	.	.
=93	=93	=93	=93	=93	=93	=93	=93	=93	=93	=93	=93	=93	=93	=93	=93	=93	=93
2r	2r	4d\	8dd\L	8ff\L	2r	2r	2r	2r	2r	2r	2r	2r	2r	2r	2r	2r	2r
.	.	.	(16ee\LL)	(16gg\LL)	.	.	.	.	.	.	.	.	.	.	.	.	.
.	.	.	32dd\LLL	32ff\LLL	.	.	.	.	.	.	.	.	.	.	.	.	.
.	.	.	32ee\JJJ)	32gg\JJJ)	.	.	.	.	.	.	.	.	.	.	.	.	.
.	.	8r	8ff'\L	8aa'\L	.	.	.	.	.	.	.	.	.	.	.	.	.
.	.	8g\	8b'\J	8dd'\J	.	.	.	.	.	.	.	.	.	.	.	.	.
=94	=94	=94	=94	=94	=94	=94	=94	=94	=94	=94	=94	=94	=94	=94	=94	=94	=94
4r	4r	4c\	8cc\L	8ee\L	2r	2r	2r	2r	2r	2r	2r	2r	2r	2r	2r	2r	2r
.	.	.	(16dd\LL)	(16ff\LL)	.	.	.	.	.	.	.	.	.	.	.	.	.
.	.	.	32cc\LLL	32ee\LLL	.	.	.	.	.	.	.	.	.	.	.	.	.
.	.	.	32dd\JJJ)	32ff\JJJ)	.	.	.	.	.	.	.	.	.	.	.	.	.
8r	8r	8r	8ee'/L	8gg'\L	.	.	.	.	.	.	.	.	.	.	.	.	.
8GG#'\	8G#'\	8G#'/	8B'/J	(16.ff\LL	.	.	.	.	.	.	.	.	.	.	.	.	.
.	.	.	.	32ee\JJk)	.	.	.	.	.	.	.	.	.	.	.	.	.
=95	=95	=95	=95	=95	=95	=95	=95	=95	=95	=95	=95	=95	=95	=95	=95	=95	=95
8AA'\L	8A'\L	8A'/L	8c'/L	(16.ee\LL	2r	2r	2r	2r	2r	2r	2r	2r	2r	2r	2r	2r	2r
.	.	.	.	32dd\kkk)	.	.	.	.	.	.	.	.	.	.	.	.	.
8BB'\	8B'\	8B'/	8d'/	(16.dd\	.	.	.	.	.	.	.	.	.	.	.	.	.
.	.	.	.	32cc\JJk)	.	.	.	.	.	.	.	.	.	.	.	.	.
8C'\	8c'\	8c'/	8e'/	8cc\L	.	.	.	.	.	.	.	.	.	.	.	.	.
8GG#'\J	8G#'\J	8G#'/J	8B'/J	(24gg\LL	.	.	.	.	.	.	.	.	.	.	.	.	.
.	.	.	.	24ff\)	.	.	.	.	.	.	.	.	.	.	.	.	.
.	.	.	.	24ee'\JJ	.	.	.	.	.	.	.	.	.	.	.	.	.
=96	=96	=96	=96	=96	=96	=96	=96	=96	=96	=96	=96	=96	=96	=96	=96	=96	=96
8AA'\L	8A'\L	8A'\L	8c'/L	(24ff\LL	2r	2r	2r	2r	2r	2r	2r	2r	2r	2r	2r	2r	2r
.	.	.	.	24ee\)	.	.	.	.	.	.	.	.	.	.	.	.	.
.	.	.	.	24dd'\JJ	.	.	.	.	.	.	.	.	.	.	.	.	.
8BB'\	8B'\	8B'\	8d'/	(24ee\LL	.	.	.	.	.	.	.	.	.	.	.	.	.
.	.	.	.	24dd\)	.	.	.	.	.	.	.	.	.	.	.	.	.
.	.	.	.	24cc'\JJ	.	.	.	.	.	.	.	.	.	.	.	.	.
8C'\	8c'\	8c'\	8e'/	(24dd\LL	.	.	.	.	.	.	.	.	.	.	.	.	.
.	.	.	.	24cc\)	.	.	.	.	.	.	.	.	.	.	.	.	.
.	.	.	.	24b'\JJ	.	.	.	.	.	.	.	.	.	.	.	.	.
8C#'\J	8c#'\J	8e'\J	8g'/J	(24cc\LL	.	.	.	.	.	.	.	.	.	.	.	.	.
.	.	.	.	24b\)	.	.	.	.	.	.	.	.	.	.	.	.	.
.	.	.	.	24a'\JJ	.	.	.	.	.	.	.	.	.	.	.	.	.
=97	=97	=97	=97	=97	=97	=97	=97	=97	=97	=97	=97	=97	=97	=97	=97	=97	=97
4D\	4d\	4d\	4f#/	(8..a/L	2r	2r	2r	2r	2r	2r	2r	2r	2r	2r	2r	2r	2r
.	.	.	.	32b/Jkk)	.	.	.	.	.	.	.	.	.	.	.	.	.
4r	4r	4r	4r	8a/L	.	.	.	.	.	.	.	.	.	.	.	.	.
.	.	.	.	8a#/J	.	.	.	.	.	.	.	.	.	.	.	.	.
=98	=98	=98	=98	=98	=98	=98	=98	=98	=98	=98	=98	=98	=98	=98	=98	=98	=98
8GG\	8G\	8g\	8d/	(8..b\L	2r	2r	2r	2r	2r	2r	2r	2r	2r	2r	2r	2r	(8..bb\L
8r	8r	8r	8r	.	.	.	.	.	.	.	.	.	.	.	.	.	.
.	.	.	.	32cc\Jkk)	.	.	.	.	.	.	.	.	.	.	.	.	32ccc\Jkk)
8DD\	8D\	8f#\	8c/	24a'\LL	.	.	.	.	.	.	.	.	.	.	.	.	24aa'\LL
.	.	.	.	24ee'\	.	.	.	.	.	.	.	.	.	.	.	.	24eee'\
.	.	.	.	24dd'\	.	.	.	.	.	.	.	.	.	.	.	.	24ddd'\
8r	8r	8r	8r	24cc'\	.	.	.	.	.	.	.	.	.	.	.	.	24ccc'\
.	.	.	.	24b'\	.	.	.	.	.	.	.	.	.	.	.	.	24bb'\
.	.	.	.	24a'\JJ	.	.	.	.	.	.	.	.	.	.	.	.	24aa'\JJ
=99	=99	=99	=99	=99	=99	=99	=99	=99	=99	=99	=99	=99	=99	=99	=99	=99	=99
4EE\	4E\	4g\	24B'/LL	8g/	2r	2r	2r	2r	2r	2r	2r	2r	2r	2r	2r	2r	8gg\
.	.	.	24e'/	.	.	.	.	.	.	.	.	.	.	.	.	.	.
.	.	.	24d'/	.	.	.	.	.	.	.	.	.	.	.	.	.	.
.	.	.	24c'/	8r	.	.	.	.	.	.	.	.	.	.	.	.	8r
.	.	.	24B'/	.	.	.	.	.	.	.	.	.	.	.	.	.	.
.	.	.	24A'/JJ	.	.	.	.	.	.	.	.	.	.	.	.	.	.
8r	8r	8r	8G/L	24r	.	.	.	.	.	.	.	.	.	.	.	.	24r
.	.	.	.	24ee'\LL	.	.	.	.	.	.	.	.	.	.	.	.	24eee'\LL
.	.	.	.	24dd'\JJ	.	.	.	.	.	.	.	.	.	.	.	.	24ddd'\JJ
(8CCz/	(8Cz/	(8G/	(8ez/J	24cc'\LL	.	.	.	.	.	.	.	.	.	.	.	.	24ccc'\LL
.	.	.	.	24b'\	.	.	.	.	.	.	.	.	.	.	.	.	24bb'\
.	.	.	.	24a'\JJ	.	.	.	.	.	.	.	.	.	.	.	.	24aa'\JJ
=100	=100	=100	=100	=100	=100	=100	=100	=100	=100	=100	=100	=100	=100	=100	=100	=100	=100
8C\)	8c\)	8A/)	8d/)	24g/LL	2r	2r	2r	2r	2r	2r	2r	2r	2r	2r	2r	2r	(24gg\LL
.	.	.	.	24f#/	.	.	.	.	.	.	.	.	.	.	.	.	24ff#\)
.	.	.	.	24a/JJ	.	.	.	.	.	.	.	.	.	.	.	.	24aa'\JJ
8BB'\L	8B'\L	8B'/L	8d'/L	(24a\LL	.	.	.	.	.	.	.	.	.	.	.	.	(24aa\LL
.	.	.	.	24g\)	.	.	.	.	.	.	.	.	.	.	.	.	24gg\)
.	.	.	.	24dd'\JJ	.	.	.	.	.	.	.	.	.	.	.	.	24ddd'\JJ
8FF#'\	8F#'\	8D'/	8a'/	(24dd\LL	.	.	.	.	.	.	.	.	.	.	.	.	(24ddd\LL
.	.	.	.	24cc\)	.	.	.	.	.	.	.	.	.	.	.	.	24ccc\)
.	.	.	.	24cc'\JJ	.	.	.	.	.	.	.	.	.	.	.	.	24ccc'\JJ
8GG'\J	8G'\J	8D'/J	8g'/J	(24cc\LL	.	.	.	.	.	.	.	.	.	.	.	.	(24ccc\LL
.	.	.	.	24b\)	.	.	.	.	.	.	.	.	.	.	.	.	24bb\)
.	.	.	.	24b'\JJ	.	.	.	.	.	.	.	.	.	.	.	.	24bb'\JJ
=101	=101	=101	=101	=101	=101	=101	=101	=101	=101	=101	=101	=101	=101	=101	=101	=101	=101
4DD\	4D\	4D/	(8..g/L	(8..b\L	2r	2r	2r	2r	2r	2r	2r	2r	2r	2r	2r	2r	(8..bb\L
.	.	.	32a/Jkk)	32cc\Jkk)	.	.	.	.	.	.	.	.	.	.	.	.	32ccc\Jkk)
4r	4r	4r	8f#'/	8a/L	.	.	.	.	.	.	.	.	.	.	.	.	8aa\
.	.	.	8r	8b/J	.	.	.	.	.	.	.	.	.	.	.	.	8r
=102	=102	=102	=102	=102	=102	=102	=102	=102	=102	=102	=102	=102	=102	=102	=102	=102	=102
4.DD\	4.D\	(2A/	24f#/LL	(8..cc\L	2r	2r	2r	2r	2r	2r	2r	2r	2r	2r	2r	2r	2r
.	.	.	24a/	.	.	.	.	.	.	.	.	.	.	.	.	.	.
.	.	.	24cc/JJ	.	.	.	.	.	.	.	.	.	.	.	.	.	.
.	.	.	24b/LL	.	.	.	.	.	.	.	.	.	.	.	.	.	.
.	.	.	24a/	.	.	.	.	.	.	.	.	.	.	.	.	.	.
.	.	.	24g/JJ	.	.	.	.	.	.	.	.	.	.	.	.	.	.
.	.	.	.	32dd\Jkk)	.	.	.	.	.	.	.	.	.	.	.	.	.
.	.	.	24f#/LL	8cc\L	.	.	.	.	.	.	.	.	.	.	.	.	.
.	.	.	24e/	.	.	.	.	.	.	.	.	.	.	.	.	.	.
.	.	.	24d/JJ	.	.	.	.	.	.	.	.	.	.	.	.	.	.
8CC/	8C/	.	24a/LL	8cc#\J	.	.	.	.	.	.	.	.	.	.	.	.	.
.	.	.	24f#/	.	.	.	.	.	.	.	.	.	.	.	.	.	.
.	.	.	24d/JJ	.	.	.	.	.	.	.	.	.	.	.	.	.	.
=103	=103	=103	=103	=103	=103	=103	=103	=103	=103	=103	=103	=103	=103	=103	=103	=103	=103
[2BBB/	[2BB/	[2G/)	24g/LL	[2dd\	2r	2r	2r	2r	2r	2r	2r	2r	2r	2r	2r	2r	2r
.	.	.	24d/	.	.	.	.	.	.	.	.	.	.	.	.	.	.
.	.	.	24B/JJ	.	.	.	.	.	.	.	.	.	.	.	.	.	.
.	.	.	24G/LL	.	.	.	.	.	.	.	.	.	.	.	.	.	.
.	.	.	24B/	.	.	.	.	.	.	.	.	.	.	.	.	.	.
.	.	.	24d/JJ	.	.	.	.	.	.	.	.	.	.	.	.	.	.
.	.	.	24g/LL	.	.	.	.	.	.	.	.	.	.	.	.	.	.
.	.	.	24d/	.	.	.	.	.	.	.	.	.	.	.	.	.	.
.	.	.	24B/JJ	.	.	.	.	.	.	.	.	.	.	.	.	.	.
.	.	.	24G/LL	.	.	.	.	.	.	.	.	.	.	.	.	.	.
.	.	.	24B/	.	.	.	.	.	.	.	.	.	.	.	.	.	.
.	.	.	24d/JJ	.	.	.	.	.	.	.	.	.	.	.	.	.	.
=104	=104	=104	=104	=104	=104	=104	=104	=104	=104	=104	=104	=104	=104	=104	=104	=104	=104
8BBB/L]	8BB/L]	8G/L]	24g/LL	8dd\L]	2r	2r	2r	2r	2r	2r	2r	2r	2r	2r	2r	2r	2r
.	.	.	24d/	.	.	.	.	.	.	.	.	.	.	.	.	.	.
.	.	.	24B/JJ	.	.	.	.	.	.	.	.	.	.	.	.	.	.
8BBB'/	8BB'/	8G'/	24G/LL	8dd'\J	.	.	.	.	.	.	.	.	.	.	.	.	.
.	.	.	24B/	.	.	.	.	.	.	.	.	.	.	.	.	.	.
.	.	.	24d/JJ	.	.	.	.	.	.	.	.	.	.	.	.	.	.
8BBB'/	8BB'/	8G'/	24g/LL	8dd'\L	.	.	.	.	.	.	.	.	.	.	.	.	.
.	.	.	24d/	.	.	.	.	.	.	.	.	.	.	.	.	.	.
.	.	.	24B/JJ	.	.	.	.	.	.	.	.	.	.	.	.	.	.
8BBB'/J	8BB'/J	8G'/J	24G/LL	(16dd\LL	.	.	.	.	.	.	.	.	.	.	.	.	.
.	.	.	24B/	.	.	.	.	.	.	.	.	.	.	.	.	.	.
.	.	.	.	16ee-\JJ)	.	.	.	.	.	.	.	.	.	.	.	.	.
.	.	.	24d/JJ	.	.	.	.	.	.	.	.	.	.	.	.	.	.
=105	=105	=105	=105	=105	=105	=105	=105	=105	=105	=105	=105	=105	=105	=105	=105	=105	=105
[2CC/	[2C/	[2G/	24g/LL	[2ee-\	2r	2r	2r	2r	2r	2r	2r	2r	2r	2r	2r	2r	2r
.	.	.	24e-/	.	.	.	.	.	.	.	.	.	.	.	.	.	.
.	.	.	24c/JJ	.	.	.	.	.	.	.	.	.	.	.	.	.	.
.	.	.	24G/LL	.	.	.	.	.	.	.	.	.	.	.	.	.	.
.	.	.	24c/	.	.	.	.	.	.	.	.	.	.	.	.	.	.
.	.	.	24e-/JJ	.	.	.	.	.	.	.	.	.	.	.	.	.	.
.	.	.	24g/LL	.	.	.	.	.	.	.	.	.	.	.	.	.	.
.	.	.	24e-/	.	.	.	.	.	.	.	.	.	.	.	.	.	.
.	.	.	24c/JJ	.	.	.	.	.	.	.	.	.	.	.	.	.	.
.	.	.	24G/LL	.	.	.	.	.	.	.	.	.	.	.	.	.	.
.	.	.	24c/	.	.	.	.	.	.	.	.	.	.	.	.	.	.
.	.	.	24e-/JJ	.	.	.	.	.	.	.	.	.	.	.	.	.	.
=106	=106	=106	=106	=106	=106	=106	=106	=106	=106	=106	=106	=106	=106	=106	=106	=106	=106
8CC/L]	8C/L]	8G/L]	24g/LL	8ee-\L]	2r	2r	2r	2r	2r	2r	2r	2r	2r	2r	2r	2r	2r
.	.	.	24e-/	.	.	.	.	.	.	.	.	.	.	.	.	.	.
.	.	.	24c/JJ	.	.	.	.	.	.	.	.	.	.	.	.	.	.
8CC/	8C/	8G/	24G/LL	8ee-'\	.	.	.	.	.	.	.	.	.	.	.	.	.
.	.	.	24c/	.	.	.	.	.	.	.	.	.	.	.	.	.	.
.	.	.	24e-/JJ	.	.	.	.	.	.	.	.	.	.	.	.	.	.
8CC/	8C/	8G/	24g/LL	8ee-'\	.	.	.	.	.	.	.	.	.	.	.	.	.
.	.	.	24e-/	.	.	.	.	.	.	.	.	.	.	.	.	.	.
.	.	.	24c/JJ	.	.	.	.	.	.	.	.	.	.	.	.	.	.
8CC/J	8C/J	8G/J	24G/LL	8ee-'\J	.	.	.	.	.	.	.	.	.	.	.	.	.
.	.	.	24c/	.	.	.	.	.	.	.	.	.	.	.	.	.	.
.	.	.	24e-/JJ	.	.	.	.	.	.	.	.	.	.	.	.	.	.
=107	=107	=107	=107	=107	=107	=107	=107	=107	=107	=107	=107	=107	=107	=107	=107	=107	=107
[2CC/	[2C/	[2A-/	24a-/LL	(8..ee-\L	2r	2r	2r	2r	2r	2r	2r	2r	2r	2r	2r	2r	2r
.	.	.	24e-/	.	.	.	.	.	.	.	.	.	.	.	.	.	.
.	.	.	24c/JJ	.	.	.	.	.	.	.	.	.	.	.	.	.	.
.	.	.	24A-/LL	.	.	.	.	.	.	.	.	.	.	.	.	.	.
.	.	.	24c/	.	.	.	.	.	.	.	.	.	.	.	.	.	.
.	.	.	24e-/JJ	.	.	.	.	.	.	.	.	.	.	.	.	.	.
.	.	.	.	32ff\Jkk)	.	.	.	.	.	.	.	.	.	.	.	.	.
.	.	.	24a-/LL	8ee-'\L	.	.	.	.	.	.	.	.	.	.	.	.	.
.	.	.	24e-/	.	.	.	.	.	.	.	.	.	.	.	.	.	.
.	.	.	24c/JJ	.	.	.	.	.	.	.	.	.	.	.	.	.	.
.	.	.	24A-/LL	8ee-'\J	.	.	.	.	.	.	.	.	.	.	.	.	.
.	.	.	24c/	.	.	.	.	.	.	.	.	.	.	.	.	.	.
.	.	.	24e-/JJ	.	.	.	.	.	.	.	.	.	.	.	.	.	.
=108	=108	=108	=108	=108	=108	=108	=108	=108	=108	=108	=108	=108	=108	=108	=108	=108	=108
8CC/L]	8C/L]	8A-/L]	24a-/LL	(4.ee-\	2r	2r	2r	2r	2r	2r	2r	2r	2r	2r	2r	2r	2r
.	.	.	24e-/	.	.	.	.	.	.	.	.	.	.	.	.	.	.
.	.	.	24c/JJ	.	.	.	.	.	.	.	.	.	.	.	.	.	.
8CC/	8C/	8A-/	24A-/LL	.	.	.	.	.	.	.	.	.	.	.	.	.	.
.	.	.	24c/	.	.	.	.	.	.	.	.	.	.	.	.	.	.
.	.	.	24e-/JJ	.	.	.	.	.	.	.	.	.	.	.	.	.	.
8CC/	8C/	8A-/	24a-/LL	.	.	.	.	.	.	.	.	.	.	.	.	.	.
.	.	.	24e-/	.	.	.	.	.	.	.	.	.	.	.	.	.	.
.	.	.	24c/JJ	.	.	.	.	.	.	.	.	.	.	.	.	.	.
8CC/J	8C/J	8A-/J	24A-/LL	8ee\)	.	.	.	.	.	.	.	.	.	.	.	.	.
.	.	.	24c/	.	.	.	.	.	.	.	.	.	.	.	.	.	.
.	.	.	24e-/JJ	.	.	.	.	.	.	.	.	.	.	.	.	.	.
=109	=109	=109	=109	=109	=109	=109	=109	=109	=109	=109	=109	=109	=109	=109	=109	=109	=109
[2DD-\	[2D-\	[2A-/	24a-/LL	[2ff\	2r	2r	2r	2r	2r	2r	2r	2r	2r	2r	2r	2r	2r
.	.	.	24f/	.	.	.	.	.	.	.	.	.	.	.	.	.	.
.	.	.	24d-/JJ	.	.	.	.	.	.	.	.	.	.	.	.	.	.
.	.	.	24A-/LL	.	.	.	.	.	.	.	.	.	.	.	.	.	.
.	.	.	24d-/	.	.	.	.	.	.	.	.	.	.	.	.	.	.
.	.	.	24f/JJ	.	.	.	.	.	.	.	.	.	.	.	.	.	.
.	.	.	24a-/LL	.	.	.	.	.	.	.	.	.	.	.	.	.	.
.	.	.	24f/	.	.	.	.	.	.	.	.	.	.	.	.	.	.
.	.	.	24d-/JJ	.	.	.	.	.	.	.	.	.	.	.	.	.	.
.	.	.	24A-/LL	.	.	.	.	.	.	.	.	.	.	.	.	.	.
.	.	.	24d-/	.	.	.	.	.	.	.	.	.	.	.	.	.	.
.	.	.	24f/JJ	.	.	.	.	.	.	.	.	.	.	.	.	.	.
=110	=110	=110	=110	=110	=110	=110	=110	=110	=110	=110	=110	=110	=110	=110	=110	=110	=110
8DD-\L]	8D-\L]	8A-/L]	24a-/LL	8ff\L]	2r	2r	2r	2r	2r	2r	2r	2r	2r	2r	2r	2r	2r
.	.	.	24f/	.	.	.	.	.	.	.	.	.	.	.	.	.	.
.	.	.	24d-/JJ	.	.	.	.	.	.	.	.	.	.	.	.	.	.
8DD-\	8D-\	8A-/	24A-/LL	(8ff'\	.	.	.	.	.	.	.	.	.	.	.	.	.
.	.	.	24d-/	.	.	.	.	.	.	.	.	.	.	.	.	.	.
.	.	.	24f/JJ	.	.	.	.	.	.	.	.	.	.	.	.	.	.
8DD-\	8D-\	8A-/	24a-/LL	8ff'\	.	.	.	.	.	.	.	.	.	.	.	.	.
.	.	.	24f/	.	.	.	.	.	.	.	.	.	.	.	.	.	.
.	.	.	24d-/JJ	.	.	.	.	.	.	.	.	.	.	.	.	.	.
8DD-\J	8D-\J	8A-/J	24A-/LL	8ff'\J)	.	.	.	.	.	.	.	.	.	.	.	.	.
.	.	.	24d-/	.	.	.	.	.	.	.	.	.	.	.	.	.	.
.	.	.	24f/JJ	.	.	.	.	.	.	.	.	.	.	.	.	.	.
=111	=111	=111	=111	=111	=111	=111	=111	=111	=111	=111	=111	=111	=111	=111	=111	=111	=111
[2DD-\	[2D-\	[2A-/	24a-/LL	(8..ff\L	2r	2r	2r	2r	2r	2r	2r	2r	2r	2r	2r	2r	2r
.	.	.	24f/	.	.	.	.	.	.	.	.	.	.	.	.	.	.
.	.	.	24d-/JJ	.	.	.	.	.	.	.	.	.	.	.	.	.	.
.	.	.	24A-/LL	.	.	.	.	.	.	.	.	.	.	.	.	.	.
.	.	.	24d-/	.	.	.	.	.	.	.	.	.	.	.	.	.	.
.	.	.	24f/JJ	.	.	.	.	.	.	.	.	.	.	.	.	.	.
.	.	.	.	32gg-\Jkk)	.	.	.	.	.	.	.	.	.	.	.	.	.
.	.	.	24a-/LL	8ff\L	.	.	.	.	.	.	.	.	.	.	.	.	.
.	.	.	24f/	.	.	.	.	.	.	.	.	.	.	.	.	.	.
.	.	.	24d-/JJ	.	.	.	.	.	.	.	.	.	.	.	.	.	.
.	.	.	24A-/LL	8ff'\J	.	.	.	.	.	.	.	.	.	.	.	.	.
.	.	.	24d-/	.	.	.	.	.	.	.	.	.	.	.	.	.	.
.	.	.	24f/JJ	.	.	.	.	.	.	.	.	.	.	.	.	.	.
=112	=112	=112	=112	=112	=112	=112	=112	=112	=112	=112	=112	=112	=112	=112	=112	=112	=112
2DD-_\	2D-_\	2A-_/	24a-/LL	[2ff\	2r	2r	2r	2r	2r	2r	2r	2r	2r	2r	2r	2r	2r
.	.	.	24f/	.	.	.	.	.	.	.	.	.	.	.	.	.	.
.	.	.	24d-/JJ	.	.	.	.	.	.	.	.	.	.	.	.	.	.
.	.	.	24A-/LL	.	.	.	.	.	.	.	.	.	.	.	.	.	.
.	.	.	24d-/	.	.	.	.	.	.	.	.	.	.	.	.	.	.
.	.	.	24f/JJ	.	.	.	.	.	.	.	.	.	.	.	.	.	.
.	.	.	24a-/LL	.	.	.	.	.	.	.	.	.	.	.	.	.	.
.	.	.	24f/	.	.	.	.	.	.	.	.	.	.	.	.	.	.
.	.	.	24d-/JJ	.	.	.	.	.	.	.	.	.	.	.	.	.	.
.	.	.	24A-/LL	.	.	.	.	.	.	.	.	.	.	.	.	.	.
.	.	.	24d-/	.	.	.	.	.	.	.	.	.	.	.	.	.	.
.	.	.	24f/JJ	.	.	.	.	.	.	.	.	.	.	.	.	.	.
=113	=113	=113	=113	=113	=113	=113	=113	=113	=113	=113	=113	=113	=113	=113	=113	=113	=113
2DD-;\]	2D-;\]	2A-;/]	2a-;/	2ff;\]	2r	2r	2r	2r	2r	2r	2r	2r	2r	2r	2r	2r	2r
=114	=114	=114	=114	=114	=114	=114	=114	=114	=114	=114	=114	=114	=114	=114	=114	=114	=114
2r	2r	2r	2r	2r	2r	2r	2r	2r	2r	2c#\	2c#\	2r	2r	(4g#/	(4g#/	2r	(8..ee\L
.	.	.	.	.	.	.	.	.	.	.	.	.	.	.	.	.	32ff#\Jkk)
.	.	.	.	.	.	.	.	.	.	.	.	.	.	4a/)	4a/)	.	8ee'\L
.	.	.	.	.	.	.	.	.	.	.	.	.	.	.	.	.	8ee'\J
=115	=115	=115	=115	=115	=115	=115	=115	=115	=115	=115	=115	=115	=115	=115	=115	=115	=115
2r	2r	2r	2r	2r	2r	2r	2r	2r	2r	2B#;\	2B#;\	2r	2r	2f#;/	2a;/	2r	(16dd#'\LL
.	.	.	.	.	.	.	.	.	.	.	.	.	.	.	.	.	16ff#'\
.	.	.	.	.	.	.	.	.	.	.	.	.	.	.	.	.	16aa'\
.	.	.	.	.	.	.	.	.	.	.	.	.	.	.	.	.	16bb#'\JJ)
.	.	.	.	.	.	.	.	.	.	.	.	.	.	.	.	.	4ddd#;\
=116	=116	=116	=116	=116	=116	=116	=116	=116	=116	=116	=116	=116	=116	=116	=116	=116	=116
2r	2r	2r	2r	2r	2r	2r	2r	2r	2r	2B\	2B\	2r	2r	2e#/	2g#/	2r	(8..dd\L
.	.	.	.	.	.	.	.	.	.	.	.	.	.	.	.	.	32ee\Jkk)
.	.	.	.	.	.	.	.	.	.	.	.	.	.	.	.	.	8dd'\L
.	.	.	.	.	.	.	.	.	.	.	.	.	.	.	.	.	8dd'\J
=117	=117	=117	=117	=117	=117	=117	=117	=117	=117	=117	=117	=117	=117	=117	=117	=117	=117
2r	2r	2r	2r	2r	2r	2r	2r	2r	2r	2A#;\	2A#;\	2r	2r	2f#;/	2cc#;\	2r	(16cc#'\LL
.	.	.	.	.	.	.	.	.	.	.	.	.	.	.	.	.	16ff#'\
.	.	.	.	.	.	.	.	.	.	.	.	.	.	.	.	.	16aa#'\
.	.	.	.	.	.	.	.	.	.	.	.	.	.	.	.	.	16ccc#'\JJ)
.	.	.	.	.	.	.	.	.	.	.	.	.	.	.	.	.	4fff#;\
=118	=118	=118	=118	=118	=118	=118	=118	=118	=118	=118	=118	=118	=118	=118	=118	=118	=118
8r	8r	[2A/	[2f#/	(8..cc#\L	2r	2r	2r	2r	2r	[2A\	(8..c#\L	2r	2r	2r	2r	2r	2r
(8C#\L	(8c#\L	.	.	.	.	.	.	.	.	.	.	.	.	.	.	.	.
.	.	.	.	32dd\Jkk)	.	.	.	.	.	.	32d\Jkk)	.	.	.	.	.	.
8AA\	8A\	.	.	8cc#'\L	.	.	.	.	.	.	8c#'\L	.	.	.	.	.	.
8FF#\J)	8F#\J)	.	.	8aa'\J	.	.	.	.	.	.	8c#'\J	.	.	.	.	.	.
=119	=119	=119	=119	=119	=119	=119	=119	=119	=119	=119	=119	=119	=119	=119	=119	=119	=119
8r	8r	2A/]	2f#/]	(8..dd\L	2r	2r	2r	2r	2r	2A\]	(8..d\L	2r	2r	2r	2r	2r	2r
(8D\L	(8d\L	.	.	.	.	.	.	.	.	.	.	.	.	.	.	.	.
.	.	.	.	32ee\Jkk)	.	.	.	.	.	.	32e\Jkk)	.	.	.	.	.	.
8AA\	8A\	.	.	8dd'\L	.	.	.	.	.	.	8d'\L	.	.	.	.	.	.
8FF#\J)	8F#\J)	.	.	8aa'\J	.	.	.	.	.	.	8d'\J	.	.	.	.	.	.
=120	=120	=120	=120	=120	=120	=120	=120	=120	=120	=120	=120	=120	=120	=120	=120	=120	=120
[2DD\	[2D\	[2c\	[2f#/ [2A/	(8..cc\L	2r	2r	2r	2r	2r	[2F#\	(8..c\L	2r	2r	2r	2r	2r	2r
.	.	.	.	32dd\Jkk)	.	.	.	.	.	.	32d\Jkk)	.	.	.	.	.	.
.	.	.	.	8cc'\L	.	.	.	.	.	.	8c'\L	.	.	.	.	.	.
.	.	.	.	8aa'\J	.	.	.	.	.	.	8c'\J	.	.	.	.	.	.
=121	=121	=121	=121	=121	=121	=121	=121	=121	=121	=121	=121	=121	=121	=121	=121	=121	=121
2DD\]	2D\]	2c\]	2f#/] 2A/]	8cc'\L	32D\LLL	2r	2r	2r	2r	2F#\]	2c\	2r	2r	2ff#\	2aa\	2ccc\	2ccc\
.	.	.	.	.	32D\	.	.	.	.	.	.	.	.	.	.	.	.
.	.	.	.	.	32D\	.	.	.	.	.	.	.	.	.	.	.	.
.	.	.	.	.	32D\	.	.	.	.	.	.	.	.	.	.	.	.
.	.	.	.	8aa'\	32D\	.	.	.	.	.	.	.	.	.	.	.	.
.	.	.	.	.	32D\	.	.	.	.	.	.	.	.	.	.	.	.
.	.	.	.	.	32D\	.	.	.	.	.	.	.	.	.	.	.	.
.	.	.	.	.	32D\	.	.	.	.	.	.	.	.	.	.	.	.
.	.	.	.	8cc'\	32D\	.	.	.	.	.	.	.	.	.	.	.	.
.	.	.	.	.	32D\	.	.	.	.	.	.	.	.	.	.	.	.
.	.	.	.	.	32D\	.	.	.	.	.	.	.	.	.	.	.	.
.	.	.	.	.	32D\	.	.	.	.	.	.	.	.	.	.	.	.
.	.	.	.	8aa'\J	32D\	.	.	.	.	.	.	.	.	.	.	.	.
.	.	.	.	.	32D\	.	.	.	.	.	.	.	.	.	.	.	.
.	.	.	.	.	32D\	.	.	.	.	.	.	.	.	.	.	.	.
.	.	.	.	.	32D\JJJ	.	.	.	.	.	.	.	.	.	.	.	.
=122	=122	=122	=122	=122	=122	=122	=122	=122	=122	=122	=122	=122	=122	=122	=122	=122	=122
8GG\	8G\	8G/	8d/ 8B/	(8..b\L	4D\	2r	2r	4g\	4b\	8G\	(8..B\L	2r	2r	4gg\	4bb\	(8..bb\L	(8..bb\L
8r	8r	8r	8r	.	.	.	.	.	.	8r	.	.	.	.	.	.	.
.	.	.	.	32cc\Jkk)	.	.	.	.	.	.	32c\Jkk)	.	.	.	.	32ccc\Jkk)	32ccc\Jkk)
8DD\	8D\	8f#\	8c/	24a'\LL	4r	.	.	4d/	4a\	4r	24A'\LL	.	.	4r	4r	24aa'\LL	24aa'\LL
.	.	.	.	24ee'\	.	.	.	.	.	.	24e'\	.	.	.	.	24eee'\	24eee'\
.	.	.	.	24dd'\JJ	.	.	.	.	.	.	24d'\JJ	.	.	.	.	24ddd'\JJ	24ddd'\JJ
8r	8r	8r	8r	24cc'\LL	.	.	.	.	.	.	24c'\LL	.	.	.	.	24ccc'\LL	24ccc'\LL
.	.	.	.	24b'\	.	.	.	.	.	.	24B'\	.	.	.	.	24bb'\	24bb\
.	.	.	.	24a'\JJ	.	.	.	.	.	.	24A'\JJ	.	.	.	.	24aa'\JJ	24aa'\JJ
=123	=123	=123	=123	=123	=123	=123	=123	=123	=123	=123	=123	=123	=123	=123	=123	=123	=123
8EE\	8E\	8g\	24B/LL	8g/	2r	2r	2r	4B/	4g\	4r	8G\	2r	2r	2r	2r	8gg\	8gg\
.	.	.	24e'/	.	.	.	.	.	.	.	.	.	.	.	.	.	.
.	.	.	24d'/JJ	.	.	.	.	.	.	.	.	.	.	.	.	.	.
8r	8r	8r	24c'/LL	8r	.	.	.	.	.	.	8r	.	.	.	.	8r	8r
.	.	.	24B'/	.	.	.	.	.	.	.	.	.	.	.	.	.	.
.	.	.	24A'/JJ	.	.	.	.	.	.	.	.	.	.	.	.	.	.
8r	8r	8r	8G'/L	24r	.	.	.	4r	4r	24r	24r	.	.	.	.	24r	24r
.	.	.	.	24ee'\LL	.	.	.	.	.	24e'\LL	24e'\LL	.	.	.	.	24eee'\LL	24eee'\LL
.	.	.	.	24dd'\JJ	.	.	.	.	.	24d'\JJ	24d'\JJ	.	.	.	.	24ddd'\JJ	24ddd'\JJ
(8CCz/	(8Cz/	(8Gz/	(8e/J	24cc'\LL	.	.	.	.	.	24c'\LL	24c'\LL	.	.	.	.	24ccc'\LL	24ccc'\LL
.	.	.	.	24b'\	.	.	.	.	.	24B'\	24B'\	.	.	.	.	24bb'\	24bb'\
.	.	.	.	24a'\JJ	.	.	.	.	.	24A'\JJ	24A'\JJ	.	.	.	.	24aa'\JJ	24aa'\JJ
=124	=124	=124	=124	=124	=124	=124	=124	=124	=124	=124	=124	=124	=124	=124	=124	=124	=124
8C\)	8c\)	8A/)	8d/)	(24g/LL	2r	2r	2r	(8d\L	(8a\L	(24G\LL	(24G\LL	2r	2r	2r	2r	(24gg\LL	(24gg\LL
.	.	.	.	24f#/)	.	.	.	.	.	24F#\)	24F#\)	.	.	.	.	24ff#\)	24ff#\)
.	.	.	.	24a'/JJ	.	.	.	.	.	24A'\JJ	24A'\JJ	.	.	.	.	24aa'\JJ	24aa'\JJ
8BB'\L	8B'\L	8B'/L	8d'/L	(24a/LL	.	.	.	8g\	8b\	(24A\LL	(24A\LL	.	.	.	.	(24aa\LL	(24aa\LL
.	.	.	.	24g/)	.	.	.	.	.	24G\)	24G\)	.	.	.	.	24gg\)	24gg\)
.	.	.	.	24dd'/JJ	.	.	.	.	.	24d'\JJ	24d'\JJ	.	.	.	.	24ddd'\JJ	24ddd'\JJ
8FF#'\	8F#'\	8D'/	8a'/	(24dd\LL	.	.	.	8a\	8cc\	(24d\LL	(24d\LL	.	.	.	.	(24ddd\LL	(24ddd\LL
.	.	.	.	24cc\)	.	.	.	.	.	24c\)	24c\)	.	.	.	.	24ccc\)	24ccc\)
.	.	.	.	24cc'\JJ	.	.	.	.	.	24c'\JJ	24c'\JJ	.	.	.	.	24ccc'\JJ	24ccc'\JJ
8GG'\J	8G'\J	8D'/J	8g'/J	(24cc\LL	.	.	.	8g\J)	8b\J)	(24c\LL	(24c\LL	.	.	.	.	(24ccc\LL	(24ccc\LL
.	.	.	.	24b\)	.	.	.	.	.	24B\)	24B\)	.	.	.	.	24bb\)	24bb\)
.	.	.	.	24b'\JJ	.	.	.	.	.	24B'\JJ	24B'\JJ	.	.	.	.	24bb'\JJ	24bb'\JJ
=125	=125	=125	=125	=125	=125	=125	=125	=125	=125	=125	=125	=125	=125	=125	=125	=125	=125
4DD\	4D\	4D/	(8..g/L	(8..b\L	2r	2r	2r	4g\	(8..b\L	(8..B\L	(8..B\L	2r	2r	2r	2r	(8..bb\L	(8..bb\L
.	.	.	32a/Jkk)	32cc\Jkk)	.	.	.	.	32cc\Jkk)	32c\Jkk)	32c\Jkk)	.	.	.	.	32ccc\Jkk)	32ccc\Jkk)
4r	4r	4r	8f#/	8a'/L	.	.	.	8d/	8a\	8A'\L	8A'\L	.	.	.	.	8aa'\L	8aa'\L
.	.	.	8r	8b'/J	.	.	.	8r	8r	8B'\J	8B'\J	.	.	.	.	8bb'\J	8bb'\J
=126	=126	=126	=126	=126	=126	=126	=126	=126	=126	=126	=126	=126	=126	=126	=126	=126	=126
(4.DD\	(4.D\	(2A/	24f#/LL	(8..cc\L	2r	2r	2r	2d/	2a\	(8..c\L	(8..c\L	2r	2r	8f#/	(8..cc\L	(8..ccc\L	(8..ccc\L
.	.	.	24a/	.	.	.	.	.	.	.	.	.	.	.	.	.	.
.	.	.	24cc/JJ	.	.	.	.	.	.	.	.	.	.	.	.	.	.
.	.	.	24b/LL	.	.	.	.	.	.	.	.	.	.	8r	.	.	.
.	.	.	24a/	.	.	.	.	.	.	.	.	.	.	.	.	.	.
.	.	.	24g/JJ	.	.	.	.	.	.	.	.	.	.	.	.	.	.
.	.	.	.	32dd\Jkk)	.	.	.	.	.	32d\Jkk)	32d\Jkk)	.	.	.	32dd\Jkk)	32ddd\Jkk)	32ddd\Jkk)
.	.	.	24f#/LL	8cc'\L	.	.	.	.	.	8c'\L	8c'\L	.	.	8r	8cc'\L	8ccc'\L	8ccc'\L
.	.	.	24e/	.	.	.	.	.	.	.	.	.	.	.	.	.	.
.	.	.	24d/JJ	.	.	.	.	.	.	.	.	.	.	.	.	.	.
8CC/)	8C/)	.	24a/LL	8cc#'\J	.	.	.	.	.	8c#'\J	8c#'\J	.	.	8a'/	8cc#'\J	8ccc#'\J	8ccc#'\J
.	.	.	24f#/	.	.	.	.	.	.	.	.	.	.	.	.	.	.
.	.	.	24d/JJ	.	.	.	.	.	.	.	.	.	.	.	.	.	.
=127	=127	=127	=127	=127	=127	=127	=127	=127	=127	=127	=127	=127	=127	=127	=127	=127	=127
2BBB/	2BB/	2G/)	24g/LL	(8..dd\L	2r	2r	2r	4g\	4b\	(8..d\L	(8..d\L	2r	2r	8d/	(8..dd\L	(8..ddd\L	(8..ddd\L
.	.	.	24d/	.	.	.	.	.	.	.	.	.	.	.	.	.	.
.	.	.	24B/JJ	.	.	.	.	.	.	.	.	.	.	.	.	.	.
.	.	.	24G/LL	.	.	.	.	.	.	.	.	.	.	4g/	.	.	.
.	.	.	24B/	.	.	.	.	.	.	.	.	.	.	.	.	.	.
.	.	.	24d/JJ	.	.	.	.	.	.	.	.	.	.	.	.	.	.
.	.	.	.	32ee\Jkk)	.	.	.	.	.	32e\Jkk)	32e\Jkk)	.	.	.	32ee\Jkk)	32eee\Jkk)	32eee\Jkk)
.	.	.	(24g/LL	8dd'\L	.	.	.	4r	4r	8d'\L	8d'\L	.	.	.	8dd'\L	8ddd'\L	8ddd'\L
.	.	.	24G/)	.	.	.	.	.	.	.	.	.	.	.	.	.	.
.	.	.	24g'/JJ	.	.	.	.	.	.	.	.	.	.	.	.	.	.
.	.	.	(24g/LL	8dd#'\J	.	.	.	.	.	8d#'\J	8d#'\J	.	.	8g/	8dd#'\J	8ddd#'\J	8ddd#'\J
.	.	.	24G/)	.	.	.	.	.	.	.	.	.	.	.	.	.	.
.	.	.	24g'/JJ	.	.	.	.	.	.	.	.	.	.	.	.	.	.
=128	=128	=128	=128	=128	=128	=128	=128	=128	=128	=128	=128	=128	=128	=128	=128	=128	=128
2CC/	2C/	2g\	(24g/LL	2dd#\	2r	2r	2r	2g\	2g\	2d#\	2d#\	2r	2r	2g/	2dd#\	2ddd#\	2ddd#\
.	.	.	24G/)	.	.	.	.	.	.	.	.	.	.	.	.	.	.
.	.	.	24g'/JJ	.	.	.	.	.	.	.	.	.	.	.	.	.	.
.	.	.	(24g/LL	.	.	.	.	.	.	.	.	.	.	.	.	.	.
.	.	.	24G/)	.	.	.	.	.	.	.	.	.	.	.	.	.	.
.	.	.	24g'/JJ	.	.	.	.	.	.	.	.	.	.	.	.	.	.
.	.	.	(24g/LL	.	.	.	.	.	.	.	.	.	.	.	.	.	.
.	.	.	24G/)	.	.	.	.	.	.	.	.	.	.	.	.	.	.
.	.	.	24g'/JJ	.	.	.	.	.	.	.	.	.	.	.	.	.	.
.	.	.	(24g/LL	.	.	.	.	.	.	.	.	.	.	.	.	.	.
.	.	.	24G/)	.	.	.	.	.	.	.	.	.	.	.	.	.	.
.	.	.	24g'/JJ	.	.	.	.	.	.	.	.	.	.	.	.	.	.
=129	=129	=129	=129	=129	=129	=129	=129	=129	=129	=129	=129	=129	=129	=129	=129	=129	=129
[2CC/	[2C/	(4.d#\	24d#'/LL	(4.ff#\	2r	2r	2r	(4.a\	(4.a\	(4.d#\	(4.d#\	2r	2r	(4.a/	(4.dd#\	(4.fff#\	(4.fff#\
.	.	.	24f#'/	.	.	.	.	.	.	.	.	.	.	.	.	.	.
.	.	.	24a'/JJ	.	.	.	.	.	.	.	.	.	.	.	.	.	.
.	.	.	24d#'/LL	.	.	.	.	.	.	.	.	.	.	.	.	.	.
.	.	.	24f#'/	.	.	.	.	.	.	.	.	.	.	.	.	.	.
.	.	.	24a'/JJ	.	.	.	.	.	.	.	.	.	.	.	.	.	.
.	.	.	24d#'/LL	.	.	.	.	.	.	.	.	.	.	.	.	.	.
.	.	.	24f#'/	.	.	.	.	.	.	.	.	.	.	.	.	.	.
.	.	.	24a'/JJ	.	.	.	.	.	.	.	.	.	.	.	.	.	.
.	.	8e\)	(24g/LL	8ee\)	.	.	.	8g\)	8g\)	8e\)	8e\)	.	.	8g/)	8ee\)	8eee\)	8eee\)
.	.	.	24G/)	.	.	.	.	.	.	.	.	.	.	.	.	.	.
.	.	.	24g'/JJ	.	.	.	.	.	.	.	.	.	.	.	.	.	.
=130	=130	=130	=130	=130	=130	=130	=130	=130	=130	=130	=130	=130	=130	=130	=130	=130	=130
2CC_/	2C_/	[2e\	(24g/LL	[2ee\	2r	2r	2r	[2g\	[2g\	[2e\	[2e\	2r	2r	[2g/	[2ee\	4eee\	4eee\
.	.	.	24G/)	.	.	.	.	.	.	.	.	.	.	.	.	.	.
.	.	.	(24g/JJ	.	.	.	.	.	.	.	.	.	.	.	.	.	.
.	.	.	(24g/LL)	.	.	.	.	.	.	.	.	.	.	.	.	.	.
.	.	.	24G/)	.	.	.	.	.	.	.	.	.	.	.	.	.	.
.	.	.	24g'/JJ	.	.	.	.	.	.	.	.	.	.	.	.	.	.
.	.	.	(24g/LL	.	.	.	.	.	.	.	.	.	.	.	.	4r	4r
.	.	.	24G/)	.	.	.	.	.	.	.	.	.	.	.	.	.	.
.	.	.	24g'/JJ	.	.	.	.	.	.	.	.	.	.	.	.	.	.
.	.	.	(24g/LL	.	.	.	.	.	.	.	.	.	.	.	.	.	.
.	.	.	24G/)	.	.	.	.	.	.	.	.	.	.	.	.	.	.
.	.	.	24g'/JJ	.	.	.	.	.	.	.	.	.	.	.	.	.	.
=131	=131	=131	=131	=131	=131	=131	=131	=131	=131	=131	=131	=131	=131	=131	=131	=131	=131
2CC_/	2C_/	2e_\	[2g/	2ee_\	2r	2r	2r	4g\]	4g\]	4e\]	4e\]	2r	2r	4g/]	4ee\]	(24g/LL	(24g/LL
.	.	.	.	.	.	.	.	.	.	.	.	.	.	.	.	24e/)	24e/)
.	.	.	.	.	.	.	.	.	.	.	.	.	.	.	.	24cc'/JJ	24cc'/JJ
.	.	.	.	.	.	.	.	.	.	.	.	.	.	.	.	(24cc\LL	(24cc\LL
.	.	.	.	.	.	.	.	.	.	.	.	.	.	.	.	24g\)	24g\)
.	.	.	.	.	.	.	.	.	.	.	.	.	.	.	.	24ee'\JJ	24ee'\JJ
.	.	.	.	.	.	.	.	4r	4r	4r	4r	.	.	4r	4r	(24ee\LL	(24ee\LL
.	.	.	.	.	.	.	.	.	.	.	.	.	.	.	.	24cc\)	24cc\)
.	.	.	.	.	.	.	.	.	.	.	.	.	.	.	.	24ee'\JJ	24ee'\JJ
.	.	.	.	.	.	.	.	.	.	.	.	.	.	.	.	(24gg\LL	(24gg\LL
.	.	.	.	.	.	.	.	.	.	.	.	.	.	.	.	24ee\)	24ee\)
.	.	.	.	.	.	.	.	.	.	.	.	.	.	.	.	24ccc'\JJ	24ccc'\JJ
=132	=132	=132	=132	=132	=132	=132	=132	=132	=132	=132	=132	=132	=132	=132	=132	=132	=132
4CC/]	4C/]	4e\]	4g/]	4ee\]	2r	2r	2r	2r	2r	2r	2r	2r	2r	2r	2r	(24ccc\LL	(24ccc\LL
.	.	.	.	.	.	.	.	.	.	.	.	.	.	.	.	24gg\)	24gg\)
.	.	.	.	.	.	.	.	.	.	.	.	.	.	.	.	24eee'\JJ	24eee'\JJ
.	.	.	.	.	.	.	.	.	.	.	.	.	.	.	.	(24eee\LL	(24eee\LL
.	.	.	.	.	.	.	.	.	.	.	.	.	.	.	.	24ccc\)	24ccc\)
.	.	.	.	.	.	.	.	.	.	.	.	.	.	.	.	24eee'\JJ	24eee'\JJ
4r	4r	4r	4r	4r	.	.	.	.	.	.	.	.	.	.	.	(24eee\LL	(24eee\LL
.	.	.	.	.	.	.	.	.	.	.	.	.	.	.	.	24ccc\)	24ccc\)
.	.	.	.	.	.	.	.	.	.	.	.	.	.	.	.	24eee'\JJ	24eee'\JJ
.	.	.	.	.	.	.	.	.	.	.	.	.	.	.	.	(24eee\LL	(24eee\LL
.	.	.	.	.	.	.	.	.	.	.	.	.	.	.	.	24ccc\)	24ccc\)
.	.	.	.	.	.	.	.	.	.	.	.	.	.	.	.	24eee'\JJ	24eee'\JJ
=133	=133	=133	=133	=133	=133	=133	=133	=133	=133	=133	=133	=133	=133	=133	=133	=133	=133
2r	2r	2r	2r	2r	2r	2r	2r	2r	2r	[2c\	[2c\	2r	2r	[2ee\	(4.gg\	(24eee\LL	(24eee\LL
.	.	.	.	.	.	.	.	.	.	.	.	.	.	.	.	24ccc\)	24ccc\)
.	.	.	.	.	.	.	.	.	.	.	.	.	.	.	.	24eee'\JJ	24eee'\JJ
.	.	.	.	.	.	.	.	.	.	.	.	.	.	.	.	(24eee\LL	(24eee\LL
.	.	.	.	.	.	.	.	.	.	.	.	.	.	.	.	24ccc\)	24ccc\)
.	.	.	.	.	.	.	.	.	.	.	.	.	.	.	.	24eee'\JJ	24eee'\JJ
.	.	.	.	.	.	.	.	.	.	.	.	.	.	.	.	(24eee\LL	(24eee\LL
.	.	.	.	.	.	.	.	.	.	.	.	.	.	.	.	24ccc\)	24ccc\)
.	.	.	.	.	.	.	.	.	.	.	.	.	.	.	.	24eee'\JJ	24eee'\JJ
.	.	.	.	.	.	.	.	.	.	.	.	.	.	.	8gg#\)	(24eee\LL	(24eee\LL
.	.	.	.	.	.	.	.	.	.	.	.	.	.	.	.	24ccc\)	24ccc\)
.	.	.	.	.	.	.	.	.	.	.	.	.	.	.	.	24eee'\JJ	24eee'\JJ
=134	=134	=134	=134	=134	=134	=134	=134	=134	=134	=134	=134	=134	=134	=134	=134	=134	=134
(4.AA\	(4.A\	(4.a\	(8..cc\L	(8..ee\L	2r	2r	2r	2r	2r	2c\]	2c\]	2r	2r	2ee\]	2aa\	(24eee\LL	(24eee\LL
.	.	.	.	.	.	.	.	.	.	.	.	.	.	.	.	24ccc\)	24ccc\)
.	.	.	.	.	.	.	.	.	.	.	.	.	.	.	.	24eee'\JJ	24eee'\JJ
.	.	.	.	.	.	.	.	.	.	.	.	.	.	.	.	(24eee\LL	(24eee\LL
.	.	.	.	.	.	.	.	.	.	.	.	.	.	.	.	24ccc\)	24ccc\)
.	.	.	.	.	.	.	.	.	.	.	.	.	.	.	.	24eee'\JJ	24eee'\JJ
.	.	.	32dd\Jkk)	32ff\Jkk)	.	.	.	.	.	.	.	.	.	.	.	.	.
.	.	.	8cc'\L	8ee'\L	.	.	.	.	.	.	.	.	.	.	.	(24eee\LL	(24eee\LL
.	.	.	.	.	.	.	.	.	.	.	.	.	.	.	.	24ccc\)	24ccc\)
.	.	.	.	.	.	.	.	.	.	.	.	.	.	.	.	24eee'\JJ	24eee'\JJ
8GG\)	8G\)	8g\)	8cc'\J	8ee'\J	.	.	.	.	.	.	.	.	.	.	.	(24eee\LL	(24eee\LL
.	.	.	.	.	.	.	.	.	.	.	.	.	.	.	.	24ccc\)	24ccc\)
.	.	.	.	.	.	.	.	.	.	.	.	.	.	.	.	24eee'\JJ	24eee'\JJ
=135	=135	=135	=135	=135	=135	=135	=135	=135	=135	=135	=135	=135	=135	=135	=135	=135	=135
4.FF#\	4.F#\	4.f#\	4.a/ 4.d/	4.ccc\)	4D\	4dd\	4dd\	4d/	4a\	4.F#\	4.F#\	2r	2r	4.dd\	4.ccc\	4.ccc\	4.ccc\
.	.	.	.	.	4r	4r	4r	4r	4r	.	.	.	.	.	.	.	.
8GG\	8G\	8g\	8b'\	8bb\	.	.	.	.	.	8G\	8G\	.	.	8dd\	8bb\	8bb\	8bb\
=136	=136	=136	=136	=136	=136	=136	=136	=136	=136	=136	=136	=136	=136	=136	=136	=136	=136
8CC/	8C/	8c\	8cc'\L	8aa'\L	2r	2r	2r	2r	2r	8C/	8C/	2r	2r	8cc\L	8aa\L	8aa\L	8aa\L
8r	8r	8r	8b'\	8gg'\	.	.	.	.	.	8r	8r	.	.	8b\	8gg\	8gg\	8gg\
8DD\	8D\	8d\	8a'\	8ff#'\	.	.	.	.	.	8D\	8D\	.	.	8a\	8ff#\	8ff#\	8ff#\
8r	8r	8r	8cc'\J	8aa'\J	.	.	.	.	.	8r	8r	.	.	8cc\J	8aa\J	8aa\J	8aa\J
=137	=137	=137	=137	=137	=137	=137	=137	=137	=137	=137	=137	=137	=137	=137	=137	=137	=137
4.EE\	4.E\	4.c#\	4.cc#\	4.gg\ 4.g\	4AA/	4a/	4a/	4G/	4g\	4.E\	4.E\	2r	2r	4cc#\	4gg\	4gg\	4gg\
.	.	.	.	.	4r	4r	4r	4r	4r	.	.	.	.	4r	4r	4r	4r
8r	8r	24d\LL	24a/LL	24ff#\LL	.	.	.	.	.	8r	8r	.	.	.	.	.	.
.	.	24d\	24a/	24ff#\	.	.	.	.	.	.	.	.	.	.	.	.	.
.	.	24d\JJ	24a/JJ	24ff#\JJ	.	.	.	.	.	.	.	.	.	.	.	.	.
=138	=138	=138	=138	=138	=138	=138	=138	=138	=138	=138	=138	=138	=138	=138	=138	=138	=138
4r	4r	24e\LL	24g/LL	24ee\LL	2r	2r	2r	2r	2r	2r	2r	2r	2r	2r	2r	2r	2r
.	.	24e\	24g/	24ee\	.	.	.	.	.	.	.	.	.	.	.	.	.
.	.	24e\JJ	24g/JJ	24ee\JJ	.	.	.	.	.	.	.	.	.	.	.	.	.
.	.	24f#\LL	24f#/LL	24dd\LL	.	.	.	.	.	.	.	.	.	.	.	.	.
.	.	24f#\	24f#/	24dd\	.	.	.	.	.	.	.	.	.	.	.	.	.
.	.	24f#\JJ	24f#/JJ	24dd\JJ	.	.	.	.	.	.	.	.	.	.	.	.	.
8r	8r	24g\LL	24e/LL	24cc#\LL	.	.	.	.	.	.	.	.	.	.	.	.	.
.	.	24g\	24e/	24cc#\	.	.	.	.	.	.	.	.	.	.	.	.	.
.	.	24g\JJ	24e/JJ	24cc#\JJ	.	.	.	.	.	.	.	.	.	.	.	.	.
24C#\LL	24c#\LL	24c#\LL	24g/LL	24ee\LL	.	.	.	.	.	.	.	.	.	.	.	.	.
24C#\	24c#\	24c#\	24g/	24ee\	.	.	.	.	.	.	.	.	.	.	.	.	.
24C#\JJ	24c#\JJ	24c#\JJ	24g/JJ	24ee\JJ	.	.	.	.	.	.	.	.	.	.	.	.	.
=139	=139	=139	=139	=139	=139	=139	=139	=139	=139	=139	=139	=139	=139	=139	=139	=139	=139
24D\LL	24d\LL	24d\LL	24f#/LL	24dd\LL	2r	2r	2r	2r	2r	2r	2r	2r	2r	2r	2r	2r	2r
24D\	24d\	24d\	24f#/	24dd\	.	.	.	.	.	.	.	.	.	.	.	.	.
24D\JJ	24d\JJ	24d\JJ	24f#/JJ	24dd\JJ	.	.	.	.	.	.	.	.	.	.	.	.	.
24FF#\LL	24F#\LL	24F#/LL	24e-/LL	24cc\LL	.	.	.	.	.	.	.	.	.	.	.	.	.
24FF#\	24F#\	24F#/	24e-/	24cc\	.	.	.	.	.	.	.	.	.	.	.	.	.
24FF#\JJ	24F#\JJ	24F#/JJ	24e-/JJ	24cc\JJ	.	.	.	.	.	.	.	.	.	.	.	.	.
24GG\LL	24G\LL	24G/LL	24d/LL	24b\LL	.	.	.	.	.	.	.	.	.	.	.	.	.
24GG\	24G\	24G/	24d/	24b\	.	.	.	.	.	.	.	.	.	.	.	.	.
24GG\JJ	24G\JJ	24G/JJ	24d/JJ	24b\JJ	.	.	.	.	.	.	.	.	.	.	.	.	.
24EE-\LL	24E-\LL	24E-/LL	24c/LL	24a/LL	.	.	.	.	.	.	.	.	.	.	.	.	.
24EE-\	24E-\	24E-/	24c/	24a/	.	.	.	.	.	.	.	.	.	.	.	.	.
24EE-\JJ	24E-\JJ	24E-/JJ	24c/JJ	24a/JJ	.	.	.	.	.	.	.	.	.	.	.	.	.
=140	=140	=140	=140	=140	=140	=140	=140	=140	=140	=140	=140	=140	=140	=140	=140	=140	=140
24DD\LL	24D\LL	24D/LL	24B/LL	24g#/LL	2r	2r	2r	2r	2r	2r	2r	2r	2r	2r	2r	2r	2r
24DD\	24D\	24D/	24B/	24g#/	.	.	.	.	.	.	.	.	.	.	.	.	.
24DD\JJ	24D\JJ	24D/JJ	24B/JJ	24g#/JJ	.	.	.	.	.	.	.	.	.	.	.	.	.
24CC#/LL	24C#/LL	24C#/LL	24B-/LL	24g/LL	.	.	.	.	.	.	.	.	.	.	.	.	.
24CC#/	24C#/	24C#/	24B-/	24g/	.	.	.	.	.	.	.	.	.	.	.	.	.
24CC#/JJ	24C#/JJ	24C#/JJ	24B-/JJ	24g/JJ	.	.	.	.	.	.	.	.	.	.	.	.	.
24DD\LL	24D\LL	24D/LL	(8A/L	8g/L	.	.	.	.	.	.	.	.	.	.	.	.	.
24DD\	24D\	24D/	.	.	.	.	.	.	.	.	.	.	.	.	.	.	.
24DD\JJ	24D\JJ	24D/JJ	.	.	.	.	.	.	.	.	.	.	.	.	.	.	.
24DD\LL	24D\LL	24D/LL	8c/J)	16a/LL	.	.	.	.	.	.	.	.	.	.	.	.	.
24DD\	24D\	24D/	.	.	.	.	.	.	.	.	.	.	.	.	.	.	.
.	.	.	.	16f#/JJ)	.	.	.	.	.	.	.	.	.	.	.	.	.
24DD\JJ	24D\JJ	24D/JJ	.	.	.	.	.	.	.	.	.	.	.	.	.	.	.
=141	=141	=141	=141	=141	=141	=141	=141	=141	=141	=141	=141	=141	=141	=141	=141	=141	=141
[2GGG/	[2GG/	(8D/L	(8B/L	4.g/ 4.G/	2r	2r	2r	2r	2r	2r	(8G\L	2r	2r	2r	2r	2r	4.g/
.	.	8B/	8d/	.	.	.	.	.	.	.	8B\	.	.	.	.	.	.
.	.	8d/	8B/J)	.	.	.	.	.	.	.	8d\	.	.	.	.	.	.
.	.	8B/J)	8d/	(16b\LL	.	.	.	.	.	.	8B\J)	.	.	.	.	.	(16b\LL
.	.	.	.	16dd\JJ)	.	.	.	.	.	.	.	.	.	.	.	.	16dd\JJ)
=142	=142	=142	=142	=142	=142	=142	=142	=142	=142	=142	=142	=142	=142	=142	=142	=142	=142
2GGG_/	2GG_/	2c\	(16d#/LL	(16dd\LL	2r	2r	2r	2r	2r	2r	2c\	2r	2r	2r	2r	2r	(16dd\LL
.	.	.	16e/)	16cc\)	.	.	.	.	.	.	.	.	.	.	.	.	16cc\)
.	.	.	(16e/	(16cc\	.	.	.	.	.	.	.	.	.	.	.	.	(16cc\
.	.	.	16f/JJ)	16b\JJ)	.	.	.	.	.	.	.	.	.	.	.	.	16b\JJ)
.	.	.	(16f/LL	(16b/LL	.	.	.	.	.	.	.	.	.	.	.	.	(16b/LL
.	.	.	16f#/)	16a/)	.	.	.	.	.	.	.	.	.	.	.	.	16a/)
.	.	.	(16f#/	(16a/	.	.	.	.	.	.	.	.	.	.	.	.	(16a/
.	.	.	16g/JJ)	16g/JJ)	.	.	.	.	.	.	.	.	.	.	.	.	16g/JJ)
=143	=143	=143	=143	=143	=143	=143	=143	=143	=143	=143	=143	=143	=143	=143	=143	=143	=143
2GGG_/	2GG_/	(16B\LL	(16g/LL	4.g/	2r	2r	2r	2r	2r	2r	(16B\LL	2r	2r	2r	2r	2r	4.g/
.	.	16d\	16d/	.	.	.	.	.	.	.	16d\	.	.	.	.	.	.
.	.	16g\	16b/	.	.	.	.	.	.	.	16g\	.	.	.	.	.	.
.	.	16f#\JJ	16a/JJ	.	.	.	.	.	.	.	16f#\JJ	.	.	.	.	.	.
.	.	16e\LL	16g/LL	.	.	.	.	.	.	.	16e\LL	.	.	.	.	.	.
.	.	16d\	16f#/	.	.	.	.	.	.	.	16d\	.	.	.	.	.	.
.	.	16c\	16e/	(16b\LL	.	.	.	.	.	.	16c\	.	.	.	.	.	(16b\LL
.	.	16B\JJ)	16d/JJ)	16dd\JJ)	.	.	.	.	.	.	16B\JJ)	.	.	.	.	.	16dd\JJ)
=144	=144	=144	=144	=144	=144	=144	=144	=144	=144	=144	=144	=144	=144	=144	=144	=144	=144
2GGG/]	2GG/]	2c\	(16d#/LL	(16dd\LL	2r	2r	2r	2r	2r	2r	2c\	2r	2r	2r	2r	2r	(16dd\LL
.	.	.	16e/)	16cc\)	.	.	.	.	.	.	.	.	.	.	.	.	16cc\)
.	.	.	(16e/	(16cc\	.	.	.	.	.	.	.	.	.	.	.	.	(16cc\
.	.	.	16f/JJ)	16b\JJ)	.	.	.	.	.	.	.	.	.	.	.	.	16b\JJ)
.	.	.	(16f/LL	(16b/LL	.	.	.	.	.	.	.	.	.	.	.	.	(16b/LL
.	.	.	16f#/)	16a/)	.	.	.	.	.	.	.	.	.	.	.	.	16a/)
.	.	.	(16f#/	(16a/	.	.	.	.	.	.	.	.	.	.	.	.	(16a/
.	.	.	16g/JJ)	16g/JJ)	.	.	.	.	.	.	.	.	.	.	.	.	16g/JJ)
*	*	*	*	*	*	*	*	*clefF4	*clefF4	*	*	*	*	*	*	*	*
=145	=145	=145	=145	=145	=145	=145	=145	=145	=145	=145	=145	=145	=145	=145	=145	=145	=145
4GGG/	4GG/	(16B\LL	4.g/	4.g/	2r	2r	2r	[2GG/	[2G/	2r	(16B\LL	2r	2r	2r	(16gg\LL	2r	4.g/
.	.	16d\	.	.	.	.	.	.	.	.	16d\	.	.	.	16dd\	.	.
.	.	16g\	.	.	.	.	.	.	.	.	16g\	.	.	.	16bb\	.	.
.	.	16f#\JJ	.	.	.	.	.	.	.	.	16f#\JJ	.	.	.	16aa\JJ	.	.
4r	4r	16e\LL	.	.	.	.	.	.	.	.	16e\LL	.	.	.	16gg\LL	.	.
.	.	16d\	.	.	.	.	.	.	.	.	16d\	.	.	.	16ff#\	.	.
.	.	16c\	(16b\LL	8dd\	.	.	.	.	.	.	16c\	.	.	.	16ee\	.	(16bb\LL
.	.	16B\JJ)	16dd\JJ)	.	.	.	.	.	.	.	16B\JJ)	.	.	.	16dd\JJ)	.	16ddd\JJ)
=146	=146	=146	=146	=146	=146	=146	=146	=146	=146	=146	=146	=146	=146	=146	=146	=146	=146
4GGG/	4GG/	2c\	(16dd\LL	(16dd#\LL	2r	2r	2r	2GG_/	2G_/	2r	2c\	2r	2r	2r	(16dd#\LL	2r	(16ddd\LL
.	.	.	16cc\)	16ee\)	.	.	.	.	.	.	.	.	.	.	16ee\)	.	16ccc\)
.	.	.	(16cc\	(16ee\	.	.	.	.	.	.	.	.	.	.	(16ee\	.	(16ccc\
.	.	.	16b\JJ)	16ff\JJ)	.	.	.	.	.	.	.	.	.	.	16ff\JJ)	.	16bb\JJ)
4r	4r	.	(16b/LL	(16ff\LL	.	.	.	.	.	.	.	.	.	.	(16ff\LL	.	(16bb\LL
.	.	.	16a/)	16ff#\)	.	.	.	.	.	.	.	.	.	.	16ff#\)	.	16aa\)
.	.	.	(16a/	(16ff#\	.	.	.	.	.	.	.	.	.	.	(16ff#\	.	(16aa\
.	.	.	16g/JJ)	16gg\JJ)	.	.	.	.	.	.	.	.	.	.	16gg\JJ)	.	16gg\JJ)
=147	=147	=147	=147	=147	=147	=147	=147	=147	=147	=147	=147	=147	=147	=147	=147	=147	=147
4GGG/	4GG/	(16B\LL	4.g/	(16gg\LL	2r	2r	2r	2GG_/	2G_/	2r	(16B\LL	2r	2r	2r	(16gg\LL	2r	4.gg\
.	.	16d\	.	16dd\	.	.	.	.	.	.	16d\	.	.	.	16dd\	.	.
.	.	16g\	.	16bb\	.	.	.	.	.	.	16g\	.	.	.	16bb\	.	.
.	.	16f#\JJ	.	16aa\JJ	.	.	.	.	.	.	16f#\JJ	.	.	.	16aa\JJ	.	.
4r	4r	16e\LL	.	16gg\LL	.	.	.	.	.	.	16e\LL	.	.	.	16gg\LL	.	.
.	.	16d\	.	16ff#\	.	.	.	.	.	.	16d\	.	.	.	16ff#\	.	.
.	.	16c\	(16b\LL	16ee\	.	.	.	.	.	.	16c\	.	.	.	16ee\	.	(16bb\LL
.	.	16B\JJ)	16dd\JJ)	16dd\JJ)	.	.	.	.	.	.	16B\JJ)	.	.	.	16dd\JJ)	.	16ddd\JJ)
=148	=148	=148	=148	=148	=148	=148	=148	=148	=148	=148	=148	=148	=148	=148	=148	=148	=148
4GGG/	4GG/	2c\	(16dd\LL	(16dd#\LL	2r	2r	2r	4GG/]	4G/]	[2GG/	(2c\	2r	2r	2r	(16dd#\LL	2r	(16ddd\LL
.	.	.	16cc\)	16ee\)	.	.	.	.	.	.	.	.	.	.	16ee\)	.	16ccc\)
.	.	.	(16cc\	(16ee\	.	.	.	.	.	.	.	.	.	.	(16ee\	.	(16ccc\
.	.	.	16b\JJ)	16ff\JJ)	.	.	.	.	.	.	.	.	.	.	16ff\JJ)	.	16bb\JJ)
4r	4r	.	(16b/LL	(16ff\LL	.	.	.	4r	4r	.	.	.	.	.	(16ff\LL	.	(16bb\LL
.	.	.	16a/)	16ff#\)	.	.	.	.	.	.	.	.	.	.	16ff#\)	.	16aa\)
.	.	.	(16a/	(16ff#\	.	.	.	.	.	.	.	.	.	.	(16ff#\	.	(16aa\
.	.	.	16g/JJ)	16gg\JJ)	.	.	.	.	.	.	.	.	.	.	16gg\JJ)	.	16gg\JJ)
*	*	*	*	*	*	*	*	*clefG2	*clefG2	*	*	*	*	*	*	*	*
=149	=149	=149	=149	=149	=149	=149	=149	=149	=149	=149	=149	=149	=149	=149	=149	=149	=149
4GGG/	4GG/	8B/	8g/	8gg\	2r	2r	2r	(16B/LL	(16g\LL	8GG/]	8B\)	2r	2r	2r	8gg\	2r	8gg\
.	.	.	.	.	.	.	.	16d/)	16a\)	.	.	.	.	.	.	.	.
.	.	8r	8r	8r	.	.	.	(16d/	(16a\	8r	8r	.	.	.	8r	.	8r
.	.	.	.	.	.	.	.	16g/JJ)	16b\JJ)	.	.	.	.	.	.	.	.
8r	8r	8r	8r	8r	.	.	.	(16g/LL	(16b\LL	8r	8r	.	.	.	8r	.	8r
.	.	.	.	.	.	.	.	16d/)	16a\)	.	.	.	.	.	.	.	.
8DD\	8D\	(16a\LL	(16f#/LL	(16cc\LL	.	.	.	(16d/	(16a\	8D\	8D\	.	.	.	(16ff#\LL	.	(16ccc\LL
.	.	16g\JJ)	16g/JJ)	16b\JJ)	.	.	.	16B/JJ)	16g\JJ)	.	.	.	.	.	16gg\JJ)	.	16bb\JJ)
=150	=150	=150	=150	=150	=150	=150	=150	=150	=150	=150	=150	=150	=150	=150	=150	=150	=150
8GG\	8G\	8g\	8g/	8b\	2r	2r	2r	(16B/LL	(16g\LL	8G\	8G\	2r	2r	2r	8gg\	2r	8bb\
.	.	.	.	.	.	.	.	16d/)	16a\)	.	.	.	.	.	.	.	.
8r	8r	8r	8r	8r	.	.	.	(16d/	(16a\	8r	8r	.	.	.	8r	.	8r
.	.	.	.	.	.	.	.	16g/JJ)	16b\JJ)	.	.	.	.	.	.	.	.
8r	8r	8r	8r	8r	.	.	.	(16g/LL	(16b\LL	8r	8r	.	.	.	8r	.	8r
.	.	.	.	.	.	.	.	16d/)	16a\)	.	.	.	.	.	.	.	.
8DD\	8D\	(16A/LL	(16c/LL	(16f#/LL	.	.	.	(16d/	(16a\	8D\	8D\	.	.	.	(16cc\LL	.	(16ff#\LL
.	.	16G/JJ)	16B/JJ)	16g/JJ)	.	.	.	16B/JJ)	16g\JJ)	.	.	.	.	.	16b\JJ)	.	16gg\JJ)
=151	=151	=151	=151	=151	=151	=151	=151	=151	=151	=151	=151	=151	=151	=151	=151	=151	=151
8GGG/	8GG/	8G/	8B/	8g/	2r	2r	2r	8B/	8g\	8GG/	8GG/	2r	2r	2r	8b\	2r	8gg\
8r	8r	8r	8r	8r	.	.	.	8r	8r	8r	8r	.	.	.	8r	.	8r
8GGG/	8GG/	8D/	8B/	8g/	.	.	.	8B/	8g\	8G\	8G\	.	.	.	8dd\	.	8dd\
8r	8r	8r	8r	8r	.	.	.	8r	8r	8r	8r	.	.	.	8r	.	8r
=152	=152	=152	=152	=152	=152	=152	=152	=152	=152	=152	=152	=152	=152	=152	=152	=152	=152
4GGG/	4GG/	4D/	4B/	4g/	2r	2r	2r	4B/	4g\	4GG/	4GG/	2r	2r	2r	4b\	2r	4b\
4r	4r	4r	4r	4r	.	.	.	4r	4r	4r	4r	.	.	.	4r	.	4r
==|!	==|!	==|!	==|!	==|!	==|!	==|!	==|!	==|!	==|!	==|!	==|!	==|!	==|!	==|!	==|!	==|!	==|!
*-	*-	*-	*-	*-	*-	*-	*-	*-	*-	*-	*-	*-	*-	*-	*-	*-	*-
!!!CDT: 1732/3/31/-1809/5/31/
!!!OCO: Johann Peter Salomon
!!!OCY: Oesterreich
!!!ODT: 1795///
!!!MPD: 1795/4/13/
!!!OPC: London
!!!PPR: Ernst Eulenburg, Ltd.
!!!PPP: London
!!!PDT: 1880///
!!!AGN: symphony
!!!AST: classical, orchestral
!!!AMT: simple duple
!!!YOR: Ernst Praetorius, editor
!!!AIN: cbass cello clars cor fagot flt oboe timpa tromp viola violn
!!!EEV: 1.0
!!!RDT: 1995 November 7
!!!YER: 1996 August 10
!!!YEN: United States of America
!!!EFL: 2/4
!!!ENC: Frances Bennion
!!!EED: W.B. Hewlett
!!!VTS: 3967431185
